!!!OTL: Zwolf Variationen in Es, uber die Romanze 'Je suis Lindor' aus der Komodie 'Le Barbier de Seville'
!!!Variation: Theme a
!!!COM: Mozart
**function	**harm	**kern	**kern
*	*	*clefF4	*clefG2
*	*	*k[b-e-a-]	*k[b-e-a-]
*M2/4	*M2/4	*M2/4	*M2/4
*E-:	*E-:	*E-:	*E-:
=1-	=1-	=1-	=1-
2T	2I	4EE- 4GG 4BB- 4E-	4B- 4e- 4g 4b-
.	.	4r	8e-L 8g
.	.	.	8e-J 8g
=2	=2	=2	=2
2T	2I	8r	4.e- 4.g
.	.	8E-	.
.	.	8EE-L	.
.	.	8GGJ	8B- 8e-
=3	=3	=3	=3
4.D	4.V	4.BB-	8dL 8f
.	.	.	8dJ 8f
.	.	.	(8dL 8f
8D	8I	8E-	8e-J) 8g
=4	=4	=4	=4
*	*	*	*^
4D	4V7	8DL	[8fL	8b-
.	.	8BB-J	8fJ]	8a-
4T	4I	8E-L	8e-	8g
*	*	*	*v	*v
.	.	8EE-J	8r
*-	*-	*-	*-
!!!OTL: Zwolf Variationen in Es, uber die Romanze 'Je suis Lindor' aus der Komodie 'Le Barbier de Seville'
!!!Variation: Theme b
!!!COM: Mozart
**function	**harm	**kern	**kern
*	*	*clefF4	*clefG2
*	*	*k[b-e-a-]	*k[b-e-a-]
*M2/4	*M2/4	*M2/4	*M2/4
*E-:	*E-:	*E-:	*E-:
=5	=5	=5	=5
*	*	*^	*
.	.	.	.	(q32g
.	.	.	.	q32b-
4T	4I	8GL 8B-	2E-	4ee-
.	.	8GJ 8B-	.	.
4T	4V7d	8A-L 8B-	.	8dd'L)
.	.	8A-J 8B-	.	(16ddL
.	.	.	.	16ffJJ
=6	=6	=6	=6	=6
4T	4I	8GL 8B-	2E-	4ee-
.	.	8GJ 8B-	.	.
4T	4V7d	8A-L 8B-	.	8dd'L)
.	.	8A-J 8B-	.	(16ddL
.	.	.	.	16ffJJ
*	*	*v	*v	*
=7	=7	=7	=7
8T	8I	8E-L 8G 8B-	8ee-'L)
8T	8Ib	(8GGJ	(8gJ 8b-
8P	8iib	8AA-L	8fL 8a-
8P	8viiom7/V	8AAJ)	8e-J) 8g
=8	=8	=8	=8
4D	4Cc	8BB-L	(4e- 4g
.	.	(16B-L	.
.	.	16AJJ)	.
4D	4V	8B-L	8d) 8f
.	.	8BB-J	8r
*-	*-	*-	*-
!!!OTL: Zwolf Variationen in Es, uber die Romanze 'Je suis Lindor' aus der Komodie 'Le Barbier de Seville'
!!!Variation: Theme c
!!!COM: Mozart
**function	**harm	**kern	**kern
*	*	*clefF4	*clefG2
*	*	*k[b-e-a-]	*k[b-e-a-]
*M2/4	*M2/4	*M2/4	*M2/4
*E-:	*E-:	*E-:	*E-:
=9	=9	=9	=9
2D	4.V	8r	4B- 4d 4f
.	.	8BB-	.
.	.	8DL	8B-L 8f
.	8V7	8BB-J	8B-J 8f 8a-
=10	=10	=10	=10
2D	4V7	8r	(4B- 4f 4a-
.	.	8E-	.
.	4I	8GL	8e-L) 8g
.	.	8E-J	8b-J
=11	=11	=11	=11
2D	2V7	8r	8b-L
.	.	8BBB- 8BB-	8B-J 8f
.	.	8DDL 8D	8B-L 8f
.	.	8BBB-J 8BB-	8B-J 8f 8a-
=12	=12	=12	=12
2D	2I	8r	(4B- 4f 4a-
.	.	8EE- 8E-	.
.	.	8GGL 8G	8e-L) 8g
.	.	8EE-J 8E-	8b-J
=13	=13	=13	=13
*-	*-	*-	*-
!!!OTL: Zwolf Variationen in Es, uber die Romanze 'Je suis Lindor' aus der Komodie 'Le Barbier de Seville'
!!!Variation: Theme d
!!!COM: Mozart
**function	**harm	**kern	**kern
*	*	*clefF4	*clefG2
*	*	*k[b-e-a-]	*k[b-e-a-]
*M2/4	*M2/4	*M2/4	*M2/4
*E-:	*E-:	*E-:	*E-:
*	*	*^	*^
2D	2V7	8B-L	2BB- 2F	(8ee-	2f 2a-
.	.	8B-J	.	4dd	.
.	.	8B-L	.	.	.
.	.	8B-J	.	16ccLL	.
.	.	.	.	16b-JJ)	.
=14	=14	=14	=14	=14	=14
2D	2V7	8B-L	2BB- 2F	(8ee-	2f 2a-
.	.	8B-J	.	4dd	.
.	.	8B-L	.	.	.
.	.	8B-J	.	16ccLL	.
.	.	.	.	16b-JJ)	.
*	*	*v	*v	*	*
=15	=15	=15	=15	=15
4T	4I	4E- 4B-	(8ee-L	4g
.	.	.	8b-J)	.
4P	4IV	4AA- 4A-	(16ddLL	8a-L
.	.	.	16cc	.
.	.	.	16b-	16gL
.	.	.	16a-JJ)	16fJJ
*	*	*	*v	*v
=16	=16	=16	=16
4D	4Cc	4BB- 4B-	(4e- 4g
4D	4V7	4BB- 4A- 4B-	4d) 4f
=17	=17	=17	=17
*	*	*	*^
2T	2I	[4E- 4A- [4B-	(8fL	(4d
.	.	.	8f#J	.
.	.	8E-] 8G 8B-]	8gL)	8e-)
.	.	8r	8b-J	8r
*	*	*	*v	*v
*-	*-	*-	*-
!!!OTL: Zwolf Variationen in Es, uber die Romanze 'Je suis Lindor' aus der Komodie 'Le Barbier de Seville'
!!!Variation: Theme e
!!!COM: Mozart
**function	**harm	**kern	**kern
*	*	*clefF4	*clefG2
*	*	*k[b-e-a-]	*k[b-e-a-]
*M2/4	*M2/4	*M2/4	*M2/4
*E-:	*E-:	*E-:	*E-:
=18	=18	=18	=18
*	*	*	*^
2D	2V7c	16FLL	(8ee-	8r
.	.	16B-	.	.
.	.	16A-	4dd	(8f
.	.	16B-JJ	.	.
.	.	16FLL	.	4a-)
.	.	16B-	.	.
.	.	16A-	16ccLL	.
.	.	16B-JJ	16b-JJ)	.
=19	=19	=19	=19	=19
2D	2V7c	16FLL	(8ee-	8r
.	.	16B-	.	.
.	.	16A-	4dd	(8f
.	.	16B-JJ	.	.
.	.	16FLL	.	4a-)
.	.	16B-	.	.
.	.	16A-	16ccLL	.
.	.	16B-JJ	16b-JJ)	.
=20	=20	=20	=20	=20
4T	4I	8E-L 8B-	(16ee-LL	8gL
.	.	.	16dd	.
.	.	8E-J	16ee-	8gJ
.	.	.	16b-JJ)	.
4P	4IV	4A-	(16ddLL	8a-L
.	.	.	16cc	.
.	.	.	16b-	16gL
.	.	.	16a-JJ)	16fJJ
*	*	*	*v	*v
=21	=21	=21	=21
4D	4Cc	4B-	4e- 4g
4D	4V7	4BB- 4A-	(16e-LL 16g
.	.	.	16d 16f
.	.	.	16c 16e-
.	.	.	16dJJ) 16f
=22	=22	=22	=22
2T	2I	8E-L 8G	4e-
.	.	8BB-J	.
.	.	4EE-	4r
*-	*-	*-	*-
!!!OTL: Zwolf Variationen in Es, uber die Romanze 'Je suis Lindor' aus der Komodie 'Le Barbier de Seville'
!!!Variation: Variation 1 a
!!!COM: Mozart
**function	**harm	**kern	**kern
*	*	*clefF4	*clefG2
*	*	*k[b-e-a-]	*k[b-e-a-]
*M2/4	*M2/4	*M2/4	*M2/4
*E-:	*E-:	*E-:	*E-:
=23	=23	=23	=23
*	*	*^	*
2T	2I	(8GL	4E-	(16aLL
.	.	.	.	16b-
.	.	8B-J)	.	16f#
.	.	.	.	16gJJ
.	.	8r	8r	16f#LL
.	.	.	.	16g
.	.	8B-	8E-	16f#
.	.	.	.	16gJJ)
=24	=24	=24	=24	=24
2T	2I	(8B-L	4E-	(16f#LL
.	.	.	.	16g
.	.	8GJ)	.	16d
.	.	.	.	16e-JJ
.	.	8r	8r	16dLL
.	.	.	.	16e-
*	*	*v	*v	*
.	.	8G 8B-	16d
.	.	.	16e-JJ)
=25	=25	=25	=25
4.P	4.iib	4.A- 4.c	(16eLL
.	.	.	16f
.	.	.	16g
.	.	.	16fJJ
.	.	.	16gLL
.	.	.	16f
8P	8V7	8B- 8d	16a-
.	.	.	16gJJ
=26	=26	=26	=26
8P	8IVb	(8cL 8e-	16b-LL
.	.	.	16a-
8D	8viiom7	8dJ 8f	16cc
.	.	.	16a-JJ
4T	4I	4e-)	16f#LL
.	.	.	16g
.	.	.	16a-
.	.	.	16gJJ)
*-	*-	*-	*-
!!!OTL: Zwolf Variationen in Es, uber die Romanze 'Je suis Lindor' aus der Komodie 'Le Barbier de Seville'
!!!Variation: Variation 1 b
!!!COM: Mozart
**function	**harm	**kern	**kern
*	*	*clefF4	*clefG2
*	*	*k[b-e-a-]	*k[b-e-a-]
*M2/4	*M2/4	*M2/4	*M2/4
*E-:	*E-:	*E-:	*E-:
=27	=27	=27	=27
4T	4Ib	8r	(16ee-LL
.	.	.	16gg
.	.	8G 8B-	16ff
.	.	.	16ee-JJ)
4T	4V7d	4A- 4B-	16dd'LL
.	.	.	(16aa-
.	.	.	16ff
.	.	.	16ddJJ)
=28	=28	=28	=28
4T	4Ib	8r	(16ee-LL
.	.	.	16gg
.	.	8G 8B-	16ff
.	.	.	16ee-JJ)
4T	4V7d	4A- 4B-	16dd'LL
.	.	.	(16aa-
.	.	.	16ff
.	.	.	16ddJJ)
=29	=29	=29	=29
*	*	*^	*
4T	4Ib	8r	8r	(16ee-LL
.	.	.	.	16dd
.	.	4B-	8G	16cc
.	.	.	.	16b-JJ
8T	8viioD7	.	8DL	16aLL
.	.	.	.	16a-
8T	8I	8B-	8E-J	16g
.	.	.	.	16b-JJ
=30	=30	=30	=30	=30
4D	4Cc	(4E-	2BB-	8a-L
.	.	.	.	8gJ
4D	4V	4D)	.	4f)
*	*	*v	*v	*
*-	*-	*-	*-
!!!OTL: Zwolf Variationen in Es, uber die Romanze 'Je suis Lindor' aus der Komodie 'Le Barbier de Seville'
!!!Variation: Variation 1 c
!!!COM: Mozart
**function	**harm	**kern	**kern
*	*	*clefF4	*clefG2
*	*	*k[b-e-a-]	*k[b-e-a-]
*M2/4	*M2/4	*M2/4	*M2/4
*E-:	*E-:	*E-:	*E-:
=31	=31	=31	=31
*	*	*^	*
2D	4.V	4B-	(8DL	(16b-LL
.	.	.	.	16f
.	.	.	8BB-J)	16e
.	.	.	.	16fJJ
.	.	8r	8r	16eLL
.	.	.	.	16f
.	8V7	8B-	8D	16g
.	.	.	.	16a-JJ
=32	=32	=32	=32	=32
2D	2I	4B-	(8E-L	16gLL
.	.	.	.	16d
.	.	.	8BB-J)	16e-
.	.	.	.	16fJJ
.	.	8r	8r	16f#LL
.	.	.	.	16g
.	.	8B-	8E-	16a-
.	.	.	.	16aJJ
=33	=33	=33	=33	=33
2D	4.V	4B-	(8DL	16b-LL
.	.	.	.	16f
.	.	.	8BB-J)	16e
.	.	.	.	16fJJ
.	.	8r	8r	16eLL
.	.	.	.	16f
.	8V7	8B-	8D	16g
.	.	.	.	16a-JJ
=34	=34	=34	=34	=34
2D	2I	4B-	4E-	16gLL
.	.	.	.	16a-
.	.	.	.	16a
.	.	.	.	16b-JJ
.	.	4r	4r	16bLL
.	.	.	.	16cc
.	.	.	.	16cc#
.	.	.	.	16ddJJ)
*	*	*v	*v	*
*-	*-	*-	*-
!!!OTL: Zwolf Variationen in Es, uber die Romanze 'Je suis Lindor' aus der Komodie 'Le Barbier de Seville'
!!!Variation: Variation 1 d
!!!COM: Mozart
**function	**harm	**kern	**kern
*	*	*clefG2	*clefG2
*	*	*k[b-e-a-]	*k[b-e-a-]
*M2/4	*M2/4	*M2/4	*M2/4
*E-:	*E-:	*E-:	*E-:
=35	=35	=35	=35
*	*	*^	*
2D	2V7	8r	2B-	(16ee-LL
.	.	.	.	16dd
.	.	4f 4a-	.	16cc#
.	.	.	.	16ddJJ)
.	.	.	.	(16ccLL
.	.	.	.	16b-
.	.	8f	.	16a
.	.	.	.	16b-JJ)
=36	=36	=36	=36	=36
2D	2V7d	8r	2A-	(16ee-LL
.	.	.	.	16dd
.	.	4B- 4f	.	16cc#
.	.	.	.	16ddJJ)
.	.	.	.	(16ccLL
.	.	.	.	16b-
.	.	8B- 8f	.	16a
.	.	.	.	16b-JJ)
*	*	*v	*v	*
=37	=37	=37	=37
*	*	*clefF4	*
4T	4Ib	8r	(16ee-LL
.	.	.	16ff
.	.	8G 8e-	16gg)
.	.	.	16b-'JJ
4P	4IV	8r	(16ccLL
.	.	.	16dd
.	.	8A- 8e-	16ee-)
.	.	.	16a-'JJ
=38	=38	=38	=38
4D	4Cc	8r	(16gLL
.	.	.	16a-
.	.	8BB- 8E- 8G	16b-)
.	.	.	16e-'JJ
4D	4V7	8r	(16fLL
.	.	.	16g
.	.	8BB- 8F 8A-	16a-)
.	.	.	16d'JJ
=39	=39	=39	=39
2T	2I	4E- 4G	(16e-LL
.	.	.	16g
.	.	.	16a-
.	.	.	16aJJ
.	.	4r	16b-LL
.	.	.	16b
.	.	.	16cc
.	.	.	16ddJJ)
*-	*-	*-	*-
!!!OTL: Zwolf Variationen in Es, uber die Romanze 'Je suis Lindor' aus der Komodie 'Le Barbier de Seville'
!!!Variation: Variation 1 e
!!!COM: Mozart
**function	**harm	**kern	**kern
*	*	*clefG2	*clefG2
*	*	*k[b-e-a-]	*k[b-e-a-]
*M2/4	*M2/4	*M2/4	*M2/4
*E-:	*E-:	*E-:	*E-:
=40	=40	=40	=40
*	*	*^	*
2D	2V7	8r	2B-	(16ee-LL
.	.	.	.	16dd
.	.	4f 4a-	.	16cc#
.	.	.	.	16ddJJ)
.	.	.	.	(16ccLL
.	.	.	.	16b-
.	.	8f	.	16a
.	.	.	.	16b-JJ)
=41	=41	=41	=41	=41
2D	2V7d	8r	2A-	(16ee-LL
.	.	.	.	16dd
.	.	4B- 4f	.	16cc#
.	.	.	.	16ddJJ)
.	.	.	.	(16ccLL
.	.	.	.	16b-
.	.	8B- 8f	.	16a
.	.	.	.	16b-JJ)
*	*	*v	*v	*
=42	=42	=42	=42
*	*	*clefF4	*
4T	4Ib	8r	(16ee-LL
.	.	.	16ff
.	.	8G 8e-	16gg)
.	.	.	16b'JJ
4P	4IV	8r	(16ccLL
.	.	.	16dd
.	.	8A- 8e-	16ee-)
.	.	.	16a-'JJ
=43	=43	=43	=43
*	*	*^	*
4D	4Cc	8r	2BB-	(16gLL
.	.	.	.	16a-
.	.	(8G	.	16b-)
.	.	.	.	16e'JJ
4D	4V7	8A-L	.	(16fLL
.	.	.	.	16g
.	.	8FJ)	.	16a-)
.	.	.	.	16d'JJ
*	*	*v	*v	*
=44	=44	=44	=44
2T	2I	8E-L	4e-
.	.	8BB-J	.
.	.	4EE-	4r
*-	*-	*-	*-
!!!OTL: Zwolf Variationen in Es, uber die Romanze 'Je suis Lindor' aus der Komodie 'Le Barbier de Seville'
!!!Variation: Variation 2 a
!!!COM: Mozart
**function	**harm	**kern	**kern
*	*	*clefF4	*clefG2
*	*	*k[b-e-a-]	*k[b-e-a-]
*M2/4	*M2/4	*M2/4	*M2/4
*E-:	*E-:	*E-:	*E-:
=45	=45	=45	=45
2T	2I	16EE-LL	(8gL 8b-
.	.	16DD	.
.	.	16EE-	8e-J) 8g
.	.	16DDJJ	.
.	.	16EE-LL	8e-L 8g
.	.	16DD	.
.	.	16EE-	8e-J 8g
.	.	16DDJJ	.
=46	=46	=46	=46
2T	2I	16EE-LL	4.e- 4.g
.	.	16DD	.
.	.	16EE-	.
.	.	16DDJJ	.
.	.	16EE-LL	.
.	.	16FF	.
.	.	16GG	8B- 8e-
.	.	16EE-JJ	.
=47	=47	=47	=47
4.P	4.ii7b	16AA-LL	8cL 8e- 8f
.	.	16C	.
.	.	16E-	8cJ 8e- 8f
.	.	16A-JJ	.
.	.	16AA-LL	(8cL 8e- 8f
.	.	16A-	.
8P	8Ic	16BB-	8e-J) 8g
.	.	16B-JJ	.
=48	=48	=48	=48
8P	8vi7	16CLL	(8e-L 8b-
.	.	16c	.
8D	8viio	16D	8fJ 8a-
.	.	16dJJ	.
4T	4I	16e-LL	8g)
.	.	16B-	.
.	.	16G	8r
.	.	16B-JJ	.
*-	*-	*-	*-
!!!OTL: Zwolf Variationen in Es, uber die Romanze 'Je suis Lindor' aus der Komodie 'Le Barbier de Seville'
!!!Variation: Variation 2 b
!!!COM: Mozart
**function	**harm	**kern	**kern
*	*	*clefF4	*clefG2
*	*	*k[b-e-a-]	*k[b-e-a-]
*M2/4	*M2/4	*M2/4	*M2/4
*E-:	*E-:	*E-:	*E-:
=49	=49	=49	=49
.	.	.	(q32g
.	.	.	q32b-
4T	4I	16E-LL	(4ee-)
.	.	16F	.
.	.	16G	.
.	.	16A-JJ	.
4T	8V	16B-LL	8f) 8dd
.	.	16A-	.
.	8V7	16G	(32aa-LLK
.	.	.	16.ddJJ)
.	.	16FJJ	.
=50	=50	=50	=50
.	.	.	(q32g
.	.	.	q32b-
4T	4I	16E-LL	(4ee-)
.	.	16F	.
.	.	16G	.
.	.	16A-JJ	.
4T	8V	16B-LL	8f) 8dd
.	.	16A-	.
.	8V7	16G	(32aa-LLK
.	.	.	16.ddJJ)
.	.	16FJJ	.
=51	=51	=51	=51
4T	4I	16E-LL	8ee-L
.	.	16F	.
.	.	16G	(8gJ 8b-
.	.	16E-JJ	.
8T	8V7	16DLL	8fL 8a-
.	.	16BB-	.
8T	8I	16E-	8e-J) 8g
.	.	16GJJ	.
=52	=52	=52	=52
4D	4Cc	16BB-LL	(4e- 4g
.	.	16B-	.
.	.	16A	.
.	.	16B-JJ	.
4D	4V	16FLL	8d) 8f
.	.	16B-	.
.	.	16D	8r
.	.	16FJJ	.
*-	*-	*-	*-
!!!OTL: Zwolf Variationen in Es, uber die Romanze 'Je suis Lindor' aus der Komodie 'Le Barbier de Seville'
!!!Variation: Variation 2 c
!!!COM: Mozart
**function	**harm	**kern	**kern
*	*	*clefF4	*clefG2
*	*	*k[b-e-a-]	*k[b-e-a-]
*M2/4	*M2/4	*M2/4	*M2/4
*E-:	*E-:	*E-:	*E-:
=53	=53	=53	=53
2T	4.V	16BB-LL	(8dL 8b-
.	.	16AA	.
.	.	16BB-	8fJ)
.	.	16CJJ	.
.	.	16DLL	8dL 8f
.	.	16C	.
.	8V7	16D	8fJ 8a-
.	.	16BB-JJ	.
=54	=54	=54	=54
2T	2I	16E-LL	(4f 4a-
.	.	16D	.
.	.	16E-	.
.	.	16FJJ	.
.	.	16GLL	8e-) 8g
.	.	16F	.
.	.	16G	8bb-
.	.	16E-JJ	.
=55	=55	=55	=55
2D	4.V	16B-LL	(8ddL 8bb-
.	.	16A	.
.	.	16B-	8ffJ)
.	.	16cJJ	.
.	.	16dLL	8ddL 8ff
.	.	16c	.
.	8V7	16d	8ffJ 8aa-
.	.	16B-JJ	.
=56	=56	=56	=56
2T	2I	16e-LL	(4ff 4aa-
.	.	16d	.
.	.	16e-	.
.	.	16B-JJ	.
.	.	16GLL	8ee-L) 8gg
.	.	16F	.
.	.	16G	8b-J
.	.	16E-JJ	.
!!!OTL: Zwolf Variationen in Es, uber die Romanze 'Je suis Lindor' aus der Komodie 'Le Barbier de Seville'
!!!Variation: Variation 2 d
!!!COM: Mozart
**function	**harm	**kern	**kern
*	*	*clefF4	*clefG2
*	*	*k[b-e-a-]	*k[b-e-a-]
*M2/4	*M2/4	*M2/4	*M2/4
*E-:	*E-:	*E-:	*E-:
=57	=57	=57	=57
*	*	*	*^
*	*	*	*	*^
2D	2V7	16BB-LL	(8ee-	4.f	2a-
.	.	16C	.	.	.
.	.	16D	4dd	.	.
.	.	16E-JJ	.	.	.
.	.	16FLL	.	.	.
.	.	16GJ	.	.	.
.	.	8A-J	16ccLL	16e-LL	.
.	.	.	16b-JJ)	16dJJ	.
=58	=58	=58	=58	=58	=58
2D	2V7	16BB-LL	(8ee-	4.f	2a-
.	.	16C	.	.	.
.	.	16D	4dd	.	.
.	.	16E-JJ	.	.	.
.	.	16FLL	.	.	.
.	.	16G	.	.	.
.	.	16A-	16ccLL	16e-LL	.
.	.	16B-JJ	16b-JJ)	16dJJ	.
*	*	*	*	*v	*v
=59	=59	=59	=59	=59
4T	4Ib	16GLL	(8ee-L	2e-
.	.	16F	.	.
.	.	16G	8b-J)	.
.	.	16E-JJ	.	.
4P	4IV	16A-LL	(16ddLL	.
.	.	16G	16cc	.
.	.	16A-	16b-	.
.	.	16FJJ	16a-JJ)	.
*	*	*	*v	*v
=60	=60	=60	=60
4D	4Cc	16B-LL	(4e- 4g
.	.	16G	.
.	.	16E-	.
.	.	16GJJ	.
4D	4V7	16B-LL	8dL) 8f
.	.	16BB-	.
.	.	16C	8b-J
.	.	16DJJ	.
=61	=61	=61	=61
2T	2I	16E-LL	(4f 4a-
.	.	16D	.
.	.	16E-	.
.	.	16DJJ	.
.	.	16E-LL	8e-L) 8g
.	.	16BB-	.
.	.	16GG	8b-J
.	.	16EE-JJ	.
*-	*-	*-	*-
!!!OTL: Zwolf Variationen in Es, uber die Romanze 'Je suis Lindor' aus der Komodie 'Le Barbier de Seville'
!!!Variation: Variation 2 e
!!!COM: Mozart
**function	**harm	**kern	**kern
*	*	*clefF4	*clefG2
*	*	*k[b-e-a-]	*k[b-e-a-]
*M2/4	*M2/4	*M2/4	*M2/4
*E-:	*E-:	*E-:	*E-:
=62	=62	=62	=62
*	*	*	*^
*	*	*	*	*^
2D	2V7	16BBB-LL	(8ee-	4.f	2a-
.	.	16CC	.	.	.
.	.	16DD	4dd	.	.
.	.	16EE-JJ	.	.	.
.	.	16FFLL	.	.	.
.	.	16GGJ	.	.	.
.	.	8AA-J	16ccLL	16e-LL	.
.	.	.	16b-JJ)	16dJJ	.
=63	=63	=63	=63	=63	=63
2D	2V7	16BBB-LL	(8ee-	4.f	2a-
.	.	16CC	.	.	.
.	.	16DD	4dd	.	.
.	.	16EE-JJ	.	.	.
.	.	16FFLL	.	.	.
.	.	16GG	.	.	.
.	.	16AA-	16ccLL	16e-LL	.
.	.	16BB-JJ	16b-JJ)	16dJJ	.
*	*	*	*	*v	*v
=64	=64	=64	=64	=64
4T	4Ib	16GGLL	(16ee-LL	2e-
.	.	16FF	16dd	.
.	.	16GG	16ee-	.
.	.	16EE-JJ	16b-JJ	.
4P	4IV	16AA-LL	16ccLL	.
.	.	16GG	16b	.
.	.	16AA-	16cc	.
.	.	16CJJ	16a-JJ)	.
*	*	*	*v	*v
=65	=65	=65	=65
4D	4Cc	16BB-LL	(4e- 4g
.	.	16GG	.
.	.	16EE-	.
.	.	16GGJJ	.
4D	4V	16BB-LL	4d) 4f
.	.	16AA	.
.	.	16BB-	.
.	.	16BBB-JJ	.
=66	=66	=66	=66
2T	2I	16EE-LL	4e-
.	.	16GG	.
.	.	16BB-	.
.	.	16E-JJ	.
.	.	8EE-	4r
.	.	8r	.
*-	*-	*-	*-
!!!OTL: Zwolf Variationen in Es, uber die Romanze 'Je suis Lindor' aus der Komodie 'Le Barbier de Seville'
!!!Variation: Variation 3 a
!!!COM: Mozart
**function	**harm	**kern	**kern
*	*	*clefG2	*clefG2
*	*	*k[b-e-a-]	*k[b-e-a-]
*M2/4	*M2/4	*M2/4	*M2/4
*E-:	*E-:	*E-:	*E-:
=67	=67	=67	=67
2T	2I	4e- 4g	16r
.	.	.	32r
.	.	.	32bb-
.	.	.	(16.bb-LL
.	.	.	64aaLL
.	.	.	64bb-JJJJ
.	.	8r	8eee-L
.	.	8e- 8g	16bb-Jk)
.	.	.	16r
=68	=68	=68	=68
2T	2I	4e- 4b-	16r
.	.	.	32r
.	.	.	32gg
.	.	.	(16.ggLL
.	.	.	64ff#LL
.	.	.	64ggJJJJ
.	.	8r	8bb-L
.	.	8g 8b-	16ee-Jk)
.	.	.	16r
=69	=69	=69	=69
4P	4iib	4a- 4cc	16r
.	.	.	32r
.	.	.	32ff
.	.	.	(16.ffLL
.	.	.	64eeLL
.	.	.	64ffJJJJ)
4P	4iiib	4b- 4dd	16r
.	.	.	32r
.	.	.	32gg
.	.	.	(16.ggLL
.	.	.	64ff#LL
.	.	.	64ggJJJJ)
=70	=70	=70	=70
8P	8IVb	8ccL 8ee-	16r
.	.	.	(16aa-LL
8D	8viiom7	8ddJ 8ff	16ccc)
.	.	.	16aa-'JJ
4T	4I	8ee-	(16aa-LL
.	.	.	16gg)
.	.	8r	(16ff
.	.	.	16ee-JJ)
*-	*-	*-	*-
!!!OTL: Zwolf Variationen in Es, uber die Romanze 'Je suis Lindor' aus der Komodie 'Le Barbier de Seville'
!!!Variation: Variation 3 b
!!!COM: Mozart
**function	**harm	**kern	**kern
*	*	*clefG2	*clefG2
*	*	*k[b-e-a-]	*k[b-e-a-]
*M2/4	*M2/4	*M2/4	*M2/4
*E-:	*E-:	*E-:	*E-:
=71	=71	=71	=71
4T	4Ib	4g 4b-	16r
.	.	.	32r
.	.	.	32eee-
.	.	.	(16.eee-LL
.	.	.	64dddLL
.	.	.	64eee-JJJJ
4T	4V7d	4a- 4b-	16ddd)
.	.	.	32r
.	.	.	32dd
.	.	.	(16.ddLL
.	.	.	64ccLL
.	.	.	64ddJJJJ
=72	=72	=72	=72
4T	4Ib	4g 4b-	16ee-)
.	.	.	32r
.	.	.	32eee-
.	.	.	(16.eee-LL
.	.	.	64dddLL
.	.	.	64eee-JJJJ
4T	4V7d	4a- 4b-	16ddd)
.	.	.	32r
.	.	.	32dd
.	.	.	(16.ddLL
.	.	.	64ccLL
.	.	.	64ddJJJJ
=73	=73	=73	=73
*	*	*^	*
8T	8Ib	4.b-	(8gL	16ee-LL
.	.	.	.	16gg
8T	8I	.	8e-J	16bb-)
.	.	.	.	16bb-'JJ
8T	8Vb	.	8dL	(16bb-LL
.	.	.	.	16aa
8T	8I	8b-	8e-J)	16aa-
.	.	.	.	16ggJJ)
*	*	*v	*v	*
=74	=74	=74	=74
4D	4Cc	([4B- 4e-	(8.bb-L
.	.	.	16ggJk)
4D	4V	8B-]) 8d	8ff
.	.	8r	8r
*-	*-	*-	*-
!!!OTL: Zwolf Variationen in Es, uber die Romanze 'Je suis Lindor' aus der Komodie 'Le Barbier de Seville'
!!!Variation: Variation 3 c
!!!COM: Mozart
**function	**harm	**kern	**kern
*	*	*clefG2	*clefG2
*	*	*k[b-e-a-]	*k[b-e-a-]
*M2/4	*M2/4	*M2/4	*M2/4
*E-:	*E-:	*E-:	*E-:
=75	=75	=75	=75
*	*	*^	*
2T	2V7	8B-L	2B-	16r
.	.	.	.	(q32gg
.	.	.	.	q32ff
.	.	.	.	q32ee
.	.	.	.	(16ffLL)
.	.	8fJ	.	16aa-)
.	.	.	.	(q32ee-
.	.	.	.	q32dd
.	.	.	.	q32cc
.	.	.	.	(16ddJJ)
.	.	8dL	.	16ffLK)
.	.	.	.	(8b-
.	.	8B-J	.	.
.	.	.	.	16a-Jk
*	*	*clefF4	*clefF4	*
=76	=76	=76	=76	=76
2T	2I	8E-L	2E-	32gLLL
.	.	.	.	32b-
.	.	.	.	32cc
.	.	.	.	32ddJJ
.	.	8B-J	.	32ee-LL
.	.	.	.	32ff
.	.	.	.	32gg
.	.	.	.	32aa-JJJ
.	.	8GL	.	32bb-LLL
.	.	.	.	32ccc
.	.	.	.	32ddd
.	.	.	.	32eee-J
.	.	8E-J	.	16bb-JJ)
.	.	.	.	16r
=77	=77	=77	=77	=77
2D	2V7	8BB-L	2BB-	16r
.	.	.	.	(16ffLL
.	.	8FJ	.	16aa-)
.	.	.	.	(16ddJJ
.	.	8DL	.	16ffLK)
.	.	.	.	(8b-
.	.	8BB-J	.	.
.	.	.	.	16a-Jk
=78	=78	=78	=78	=78
2T	2I	8EE-L	2EE-	32gLLL
.	.	.	.	32b-
.	.	.	.	32a-
.	.	.	.	32gJJ
.	.	8BB-J	.	32a-LL
.	.	.	.	32b-
.	.	.	.	32cc
.	.	.	.	32ddJJJ
.	.	8GGL	.	32ee-LLL
.	.	.	.	32ff
.	.	.	.	32gg
.	.	.	.	32aa-J
.	.	8EE-J	.	16bb-
.	.	.	.	16ee-JJ)
*	*	*v	*v	*
*-	*-	*-	*-
!!!OTL: Zwolf Variationen in Es, uber die Romanze 'Je suis Lindor' aus der Komodie 'Le Barbier de Seville'
!!!Variation: Variation 3 d
!!!COM: Mozart
**function	**harm	**kern	**kern
*	*	*clefG2	*clefG2
*	*	*k[b-e-a-]	*k[b-e-a-]
*M2/4	*M2/4	*M2/4	*M2/4
*E-:	*E-:	*E-:	*E-:
=79	=79	=79	=79
*	*	*^	*
2D	2V7	4f 4a-	8.B-L	(32ddLLL
.	.	.	.	32ee-
.	.	.	.	32ff
.	.	.	.	32ggJ
.	.	.	.	16aa-)
.	.	.	16c-Jk	16ee-JJ
.	.	4f 4a-	8.B-L	(32ddLLL
.	.	.	.	32ee-
.	.	.	.	32ff
.	.	.	.	32ggJ
.	.	.	.	16aa-)
.	.	.	16c-Jk	16ee-JJ
=80	=80	=80	=80	=80
2D	2V7	4f 4a-	8.B-L	(32ddLLL
.	.	.	.	32ee-
.	.	.	.	32ff
.	.	.	.	32ggJ
.	.	.	.	16aa-)
.	.	.	16c-Jk	16ee-JJ
.	.	8.fL 8.a-	8.B-L	(32ddLLL
.	.	.	.	32ee-
.	.	.	.	32ff
.	.	.	.	32ggJ
.	.	.	.	16aa-)
.	.	16B-Jk 16f	16A-Jk	16ddJJ
=81	=81	=81	=81	=81
4T	4Ib	8B- 8e-	8G	16r
.	.	.	.	(q32ff
.	.	.	.	q32ee-
.	.	.	.	q32dd
.	.	.	.	(16ee-LL)
.	.	8r	8r	16gg)
.	.	.	.	16b-'JJ
4P	4IV	8c 8e-	8A-	16r
.	.	.	.	(q32dd
.	.	.	.	q32cc
.	.	.	.	q32b
.	.	.	.	(16ccLL)
.	.	8r	8r	16ee-)
.	.	.	.	16a-'JJ
*	*	*clefF4	*clefF4	*
=82	=82	=82	=82	=82
4D	4Cc	8r	2BB-	16r
.	.	.	.	(q32a-
.	.	.	.	q32g
.	.	.	.	q32f#
.	.	.	.	(16gLL)
.	.	8G 8B-	.	16b-)
.	.	.	.	16e-'JJ
4D	4V7	8A-L 8B-	.	16r
.	.	.	.	(q32g
.	.	.	.	q32f
.	.	.	.	q32e
.	.	.	.	(16fLL)
.	.	8FJ 8B-	.	16a-)
.	.	.	.	16d'JJ
=83	=83	=83	=83	=83
2T	2I	8G 8B-	8E-	32r
.	.	.	.	(32e-LLL
.	.	.	.	32f
.	.	.	.	32gJJ
*	*	*v	*v	*
.	.	8r	32a-LL
.	.	.	32b-
.	.	.	32cc
.	.	.	32ddJJJ
.	.	4r	32ee-LLL
.	.	.	32ff
.	.	.	32gg
.	.	.	32aa-JJ
.	.	.	32bb-LL
.	.	.	32gg
.	.	.	32ff
.	.	.	32ee-JJJ
*-	*-	*-	*-
!!!OTL: Zwolf Variationen in Es, uber die Romanze 'Je suis Lindor' aus der Komodie 'Le Barbier de Seville'
!!!Variation: Variation 3 e
!!!COM: Mozart
**function	**harm	**kern	**kern
*	*	*clefG2	*clefG2
*	*	*k[b-e-a-]	*k[b-e-a-]
*M2/4	*M2/4	*M2/4	*M2/4
*E-:	*E-:	*E-:	*E-:
=84	=84	=84	=84
*	*	*^	*
2D	2V7	4f 4a-	8.B-L	32ddLLL
.	.	.	.	32ee-
.	.	.	.	32ff
.	.	.	.	32ggJJ
.	.	.	.	32aa-LL
.	.	.	.	32gg
.	.	.	16c-Jk	32ff
.	.	.	.	32ee-JJJ
.	.	4f 4a-	8.B-L	32ddLLL
.	.	.	.	32ee-
.	.	.	.	32ff
.	.	.	.	32ggJJ
.	.	.	.	32aa-LL
.	.	.	.	32gg
.	.	.	16c-Jk	32ff
.	.	.	.	32ee-JJJ
=85	=85	=85	=85	=85
2D	2V7	4f 4a-	8.B-L	32ddLLL
.	.	.	.	32ee-
.	.	.	.	32ff
.	.	.	.	32ggJJ
.	.	.	.	32aa-LL
.	.	.	.	32gg
.	.	.	16c-Jk	32ff
.	.	.	.	32ee-JJJ
.	.	8.fL 8.a-	8.B-L	32ddLLL
.	.	.	.	32ee-
.	.	.	.	32ff
.	.	.	.	32ggJJ
.	.	.	.	32aa-LL
.	.	.	.	32ff
.	.	16B-Jk 16f	16A-Jk	32ee-
.	.	.	.	32ddJJJ)
=86	=86	=86	=86	=86
4T	4Ib	8B- 8e-	8G	16r
.	.	.	.	(q32ff
.	.	.	.	q32ee-
.	.	.	.	q32dd
.	.	.	.	(16ee-LL)
.	.	8r	8r	16gg)
.	.	.	.	16b'JJ
4P	4IV	8c 8e-	8A-	16r
.	.	.	.	(q32dd
.	.	.	.	q32cc
.	.	.	.	q32b
.	.	.	.	(16ccLL)
.	.	8r	8r	16ee-)
.	.	.	.	16a-'JJ
*	*	*clefF4	*clefF4	*
=87	=87	=87	=87	=87
4D	4Cc	8r	2BB-	16r
.	.	.	.	(q32a-
.	.	.	.	q32g
.	.	.	.	q32f#
.	.	.	.	(16gLL)
.	.	8G 8B-	.	16b-)
.	.	.	.	16e'JJ
4D	4V7	8A-L 8B-	.	16r
.	.	.	.	(q32g
.	.	.	.	q32f
.	.	.	.	q32e
.	.	.	.	(16fLL)
.	.	8FJ 8B-	.	16a-)
.	.	.	.	16d'JJ
=88	=88	=88	=88	=88
2T	2I	4F 4A- 4B-	8E-L	(4d
.	.	.	8BB-J	.
.	.	16.G 16.B-	8EE-	8e-)
.	.	32r	.	.
.	.	8r	8r	8r
*	*	*v	*v	*
*-	*-	*-	*-
!!!OTL: Zwolf Variationen in Es, uber die Romanze 'Je suis Lindor' aus der Komodie 'Le Barbier de Seville'
!!!Variation: Variation 4 a
!!!COM: Mozart
**function	**harm	**kern	**kern
*	*	*clefF4	*clefG2
*	*	*k[b-e-a-]	*k[b-e-a-]
*M2/4	*M2/4	*M2/4	*M2/4
*E-:	*E-:	*E-:	*E-:
=89	=89	=89	=89
2T	2I	8EE-L	24r
.	.	.	(24gLL
.	.	.	24b-JJ)
.	.	8E-J	24r
.	.	.	(24e-LL
.	.	.	24gJJ)
.	.	8B-L	24r
.	.	.	(24e-LL
.	.	.	24gJJ)
.	.	8GJ	24r
.	.	.	(24e-LL
.	.	.	24gJJ)
=90	=90	=90	=90
2T	2I	8E-L	24r
.	.	.	(24e-LL
.	.	.	24gJJ)
.	.	8BB-J	24r
.	.	.	(24e-LL
.	.	.	24gJJ)
.	.	8GGL	24r
.	.	.	(24e-LL
.	.	.	24gJJ)
.	.	8EE-J	24r
.	.	.	(24B-LL
.	.	.	24e-JJ)
=91	=91	=91	=91
4.T	4V	8BB-L	24r
.	.	.	(24e-LL
.	.	.	24fJJ)
*	*	*clefG2	*
.	.	(8bb-J	24r
.	.	.	(24e-LL
.	.	.	24fJJ)
.	8V7b	8aa-L	24r
.	.	.	(24dLL
.	.	.	24fJJ)
8T	8I	8ggJ	24r
.	.	.	(24e-LL
.	.	.	24gJJ)
=92	=92	=92	=92
8P	8iic	8ffL	24r
.	.	.	(24cLL
.	.	.	24a-JJ)
8D	8V7b	8b-J	24r
.	.	.	(24dLL
.	.	.	24a-JJ)
8T	8I	8ee-L)	24r
.	.	.	(24e-LL
.	.	.	24gJJ)
*-	*-	*-	*-
!!!OTL: Zwolf Variationen in Es, uber die Romanze 'Je suis Lindor' aus der Komodie 'Le Barbier de Seville'
!!!Variation: Variation 4 b
!!!COM: Mozart
**function	**harm	**kern	**kern
*	*	*clefF4	*clefG2
*	*	*k[b-e-a-]	*k[b-e-a-]
*M2/4	*M2/4	*M2/4	*M2/4
*E-:	*E-:	*E-:	*E-:
8	8V7b	(8dJ	24r
.	.	.	(24a-LL
.	.	.	24b-JJ)
=93	=93	=93	=93
4T	4I	8e-L)	24r
.	.	.	(24gLL
.	.	.	24b-JJ)
*	*	*clefG2	*
.	.	(8eee-J	24r
.	.	.	(24gLL
.	.	.	24b-JJ)
4T	4V7b	8dddL)	24r
.	.	.	(24a-LL
.	.	.	24b-JJ)
*	*	*clefF4	*
.	.	(8dJ	24r
.	.	.	(24a-LL
.	.	.	24b-JJ)
=94	=94	=94	=94
4T	4I	8e-L)	24r
.	.	.	(24gLL
.	.	.	24b-JJ)
*	*	*clefG2	*
.	.	(8eee-J	24r
.	.	.	(24gLL
.	.	.	24b-JJ)
4T	4V7b	8dddL)	24r
.	.	.	(24a-LL
.	.	.	24b-JJ)
*	*	*clefF4	*
.	.	(8dJ	24r
.	.	.	(24a-LL
.	.	.	24b-JJ)
=95	=95	=95	=95
8T	8I	8e-L)	24r
.	.	.	(24gLL
.	.	.	24b-JJ)
*	*	*clefF4	*
8T	8Ib	(8GJ	24r
.	.	.	(24gLL
.	.	.	24b-JJ)
8P	8iib	8A-L	24r
.	.	.	(24fLL
.	.	.	24a-JJ)
8P	8viiom7/V	8AJ	24r
.	.	.	(24e-LL
.	.	.	24gJJ)
=96	=96	=96	=96
4D	4Cc	8B-L)	24r
.	.	.	(24e-LL
.	.	.	24gJJ)
.	.	8B-J	24r
.	.	.	(24e-LL
.	.	.	24b-JJ)
4D	4V	8BB-L	24r
.	.	.	(24dLL
.	.	.	24fJJ)
.	.	8BB-J	24r
.	.	.	(24dLL
.	.	.	24fJJ)
*-	*- 	*-	*-
!!!OTL: Zwolf Variationen in Es, uber die Romanze 'Je suis Lindor' aus der Komodie 'Le Barbier de Seville'
!!!Variation: Variation 4 c
!!!COM: Mozart
**function	**harm	**kern	**kern
*	*	*clefF4	*clefG2
*	*	*k[b-e-a-]	*k[b-e-a-]
*M2/4	*M2/4	*M2/4	*M2/4
*E-:	*E-:	*E-:	*E-:
=97	=97	=97	=97
2D	2V7	8BB-L	24r
.	.	.	(24dLL
.	.	.	24b-JJ)
*	*	*clefG2	*
.	.	(8bb-J	24r
.	.	.	(24dLL
.	.	.	24b-JJ)
.	.	8aaL	24r
.	.	.	(24e-LL
.	.	.	24ccJJ)
.	.	8aa-J	24r
.	.	.	(24fLL
.	.	.	24ddJJ)
=98	=98	=98	=98
8D	8I	8ggL)	24r
.	.	.	(24gLL
.	.	.	24ee-JJ)
*	*	*clefF4	*
8D	8i	8E-J 8e-	24r
.	.	.	(24g-LL
.	.	.	24ee-JJ)
8D	8-VI	8C-L 8c-	24r
.	.	.	(24g-LL
.	.	.	24ee-JJ)
8D	8viioD7/V	8AAJ 8A	24r
.	.	.	(24g-LL
.	.	.	24ee-JJ)
=99	=99	=99	=99
2D	4.V	8BB-L 8B-	24r
.	.	.	(24fLL
.	.	.	24ddJJ)
*	*	*clefG2	*
.	.	(8bb-J	24r
.	.	.	(24dLL
.	.	.	24b-JJ)
.	.	8cccL	24r
.	.	.	(24e-LL
.	.	.	24aJJ)
.	8V7	8dddJ	24r
.	.	.	(24fLL
.	.	.	24a-JJ)
=100	=100	=100	=100
8D	4i	8eee-L)	24r
.	.	.	(24e-LL
.	.	.	24g-JJ)
*	*	*clefF4	*
8D	.	8EE-J 8E-	24r
.	.	.	(24e-LL
.	.	.	24g-JJ)
8D	8-VI	8CC-L 8C-	24r
.	.	.	(24g-LL
.	.	.	24ee-JJ)
8D	8viioD7/V	8AAAJ 8AA	24r
.	.	.	(24g-LL
.	.	.	24ee-JJ)
=101	=101	=101	=101
2D	2V7	8BBB-L 8BB-	24r
.	.	.	(24fLL
.	.	.	24ee-JJ)
*	*	*clefG2	*
.	.	8aa-J	24r
.	.	.	(24fLL
.	.	.	24ddJJ)
.	.	8aa-L	24r
.	.	.	(24e-LL
.	.	.	24ccJJ)
.	.	8aa-J	24r
.	.	.	(24dLL
.	.	.	24b-JJ)
*	*	*clefF4	*
=102	=102	=102	=102
2D	2V7d	8AA-L 8A-	24r
.	.	.	(24fLL
.	.	.	24ee-JJ)
*	*	*clefG2	*
.	.	8aa-J	24r
.	.	.	(24fLL
.	.	.	24ddJJ)
.	.	8aa-L	24r
.	.	.	(24e-LL
.	.	.	24ccJJ)
.	.	8aa-J	24r
.	.	.	(24dLL
.	.	.	24b-JJ)
=103	=103	=103	=103
4T	4I	8ggL	24r
.	.	.	(24e-LL
.	.	.	24b-JJ)
.	.	8bbJ	24r
.	.	.	(24e-LL
.	.	.	24gJJ)
8P	8IVc	8cccL	24r
.	.	.	(24e-LL
.	.	.	24a-JJ)
8P	8viioD7c/V	8aaJ	24r
.	.	.	(24e-LL
.	.	.	24g-JJ)
=104	=104	=104	=104
8P	8I	8bb-L	24r
.	.	.	24e-LL
.	.	.	24gJJ
*	*	*clefF4	*
8P	8ctoD7/V	8B-J 8e	24r
.	.	.	24gLL
.	.	.	24b-JJ
4D	4V7	8B-L 8f	24r
.	.	.	24a-LL
.	.	.	24b-JJ
.	.	8B-J 8d	24r
.	.	.	24fLL
.	.	.	24b-JJ
=105	=105	=105	=105
2T	2I	8e-L	24r
.	.	.	24gLL
.	.	.	24b-JJ
.	.	8BB-J 8B-	24r
.	.	.	24b-LL
.	.	.	24ee-JJ
.	.	8GGL 8G	24r
.	.	.	24ee-LL
.	.	.	24ggJJ
.	.	8EE-J 8E-	24r
.	.	.	24ggLL
.	.	.	24bb-JJ
*-	*-	*-	*-
!!!OTL: Zwolf Variationen in Es, uber die Romanze 'Je suis Lindor' aus der Komodie 'Le Barbier de Seville'
!!!Variation: Variation 4 d
!!!COM: Mozart
**function	**harm	**kern	**kern
*	*	*clefF4	*clefG2
*	*	*k[b-e-a-]	*k[b-e-a-]
*M2/4	*M2/4	*M2/4	*M2/4
*E-:	*E-:	*E-:	*E-:
=106	=106	=106	=106
2D	2V7	8BB-L 8B-	24r
.	.	.	24fLL
.	.	.	24ee-JJ
*	*	*clefG2	*
.	.	8aa-J	24r
.	.	.	24fLL
.	.	.	24ddJJ
.	.	8aa-L	24r
.	.	.	24e-LL
.	.	.	24ccJJ
.	.	8aa-J	24r
.	.	.	24dLL
.	.	.	24b-JJ
*	*	*clefF4	*
=107	=107	=107	=107
2D	2V7d	8AA-L 8A-	24r
.	.	.	24fLL
.	.	.	24ee-JJ
*	*	*clefG2	*
.	.	8aa-J	24r
.	.	.	24fLL
.	.	.	24ddJJ
.	.	8aa-L	24r
.	.	.	24e-LL
.	.	.	24ccJJ
.	.	8aa-J	24r
.	.	.	24dLL
.	.	.	24b-JJ
=108	=108	=108	=108
4T	4I	8ggL	24r
.	.	.	24e-LL
.	.	.	24b-JJ
.	.	8bbJ	24r
.	.	.	24e-LL
.	.	.	24gJJ
8P	8IVc	8cccL	24r
.	.	.	24e-LL
.	.	.	24a-JJ
8P	8viioD7c/V	8aaJ	24r
.	.	.	24e-LL
.	.	.	24g-JJ
=109	=109	=109	=109
8D	8I	8bb-L	24r
.	.	.	24e-LL
.	.	.	24gJJ
*	*	*clefF4	*
8D	8ctoD7/V	8B-J 8e	24r
.	.	.	24gLL
.	.	.	24b-JJ
4D	4V7	8B-L 8f	24r
.	.	.	24a-LL
.	.	.	24b-JJ
.	.	8B-J 8d	24r
.	.	.	24fLL
.	.	.	24a-JJ 24b- 24dd
=110	=110	=110	=110
2T	2I	8e-L	(4f 4a- 4b- 4dd
.	.	8B-J	.
.	.	8E-	8g) 8b- 8ee-
.	.	8r	8r
*-	*-	*-	*-
!!!OTL: Zwolf Variationen in Es, uber die Romanze 'Je suis Lindor' aus der Komodie 'Le Barbier de Seville'
!!!Variation: Variation 5 a
!!!COM: Mozart
**function	**harm	**kern	**kern
*	*	*clefF4	*clefG2
*	*	*k[b-e-a-]	*k[b-e-a-]
*M2/4	*M2/4	*M2/4	*M2/4
*E-:	*E-:	*E-:	*E-:
=111	=111	=111	=111
2T	2I	2EE- 2E-	(16b-LL
.	.	.	16bb-)
.	.	.	(16g
.	.	.	16ggJJ)
.	.	.	(16gLL
.	.	.	16gg)
.	.	.	(16g
.	.	.	16ggJJ)
=112	=112	=112	=112
2T	2I	4.EE- 4.E-	(16gLL
.	.	.	16gg)
.	.	.	(16e-
.	.	.	16ee-JJ)
.	.	.	(16e-LL
.	.	.	16ee-)
.	.	8G 8B-	(16e-
.	.	.	16ee-JJ)
=113	=113	=113	=113
4P	4iib	4A- 4c	(16eLL
.	.	.	16ee)
.	.	.	(16f
.	.	.	16ffJJ)
4P	4iiib	4B- 4d	(16f#LL
.	.	.	16ff#)
.	.	.	(16g
.	.	.	16ggJJ)
=114	=114	=114	=114
8P	8vi7	8cL 8e-	(16b-LL
.	.	.	16bb-)
8D	8viio	8dJ 8f	(16a-
.	.	.	16aa-JJ)
4T	4I	8e-	(16gLL
.	.	.	16gg)
.	.	8r	(16b-
.	.	.	16bb-JJ)
*-	*-	*-	*-
!!!OTL: Zwolf Variationen in Es, uber die Romanze 'Je suis Lindor' aus der Komodie 'Le Barbier de Seville'
!!!Variation: Variation 5 b
!!!COM: Mozart
**function	**harm	**kern	**kern
*	*	*clefF4	*clefG2
*	*	*k[b-e-a-]	*k[b-e-a-]
*M2/4	*M2/4	*M2/4	*M2/4
*E-:	*E-:	*E-:	*E-:
=115	=115	=115	=115
*	*	*^	*
4T	4Ib	8r	8r	(16e-LL
.	.	.	.	16ee-)
.	.	4B-	(8G	(16ee-
.	.	.	.	16eee-JJ)
4T	4V7d	.	8A-)	(16ddLL
.	.	.	.	16ddd)
.	.	8r	8r	(16d
.	.	.	.	16ddJJ)
=116	=116	=116	=116	=116
4T	4Ib	8r	8r	(16e-LL
.	.	.	.	16ee-)
.	.	4B-	(8G	(16ee-
.	.	.	.	16eee-JJ)
4T	4V7d	.	8A-)	(16ddLL
.	.	.	.	16ddd)
.	.	8r	8r	(16d
.	.	.	.	16ddJJ)
=117	=117	=117	=117	=117
4T	4Ib	8r	8r	(16e-LL
.	.	.	.	16ee-)
.	.	4B-	(8G	(16b-
.	.	.	.	16bb-JJ)
8T	8V7b	.	8DL)	(16a-LL
.	.	.	.	16aa-)
8T	8I	8B-	8E-J	(16g
.	.	.	.	16ggJJ)
*	*	*v	*v	*
=118	=118	=118	=118
4D	4Cc	([4BB- 4E- 4G	(16gLL
.	.	.	16gg)
.	.	.	(16b-
.	.	.	16bb-JJ)
4D	4V	8BB-]) 8D 8F	(16fLL
.	.	.	16ffJJ)
.	.	8r	8r
*-	*-	*-	*-
!!!OTL: Zwolf Variationen in Es, uber die Romanze 'Je suis Lindor' aus der Komodie 'Le Barbier de Seville'
!!!Variation: Variation 5 c
!!!COM: Mozart
**function	**harm	**kern	**kern
*	*	*clefF4	*clefG2
*	*	*k[b-e-a-]	*k[b-e-a-]
*M2/4	*M2/4	*M2/4	*M2/4
*E-:	*E-:	*E-:	*E-:
=119	=119	=119	=119
*	*	*^	*
2D	2V7	(8c#L	2B-	(16eLL
.	.	.	.	16ee)
.	.	8dJ	.	(16f
.	.	.	.	16ffJJ)
.	.	8e-L	.	(16gLL
.	.	.	.	16gg)
.	.	8fJ)	.	(16a-
.	.	.	.	16aa-JJ)
=120	=120	=120	=120	=120
2D	2Ic	(8dL	2B-	(16f#LL
.	.	.	.	16ff#)
.	.	8e-J	.	(16g
.	.	.	.	16ggJJ)
.	.	8f#L	.	(16aLL
.	.	.	.	16aa)
.	.	8gJ)	.	(16b-
.	.	.	.	16bb-JJ)
=121	=121	=121	=121	=121
2D	2V7	(8C#L	2BB-	(16eLL
.	.	.	.	16ee)
.	.	8DJ	.	(16f
.	.	.	.	16ffJJ)
.	.	8E-L	.	(16gLL
.	.	.	.	16gg)
.	.	8FJ)	.	(16a-
.	.	.	.	16aa-JJ)
=122	=122	=122	=122	=122
2D	2Ic	(8DL	2BB-	(16f#LL
.	.	.	.	16ff#)
.	.	8E-J	.	(16g
.	.	.	.	16ggJJ)
.	.	8F#L	.	(16aLL
.	.	.	.	16aa)
.	.	8GJ)	.	(16b-
.	.	.	.	16bb-JJ)
=123	=123	=123	=123	=123
2D	2V7	8r	2BB-	(16ee-LL
.	.	.	.	16eee-)
.	.	4F 4A-	.	(16dd
.	.	.	.	16dddJJ)
.	.	.	.	(16ccLL
.	.	.	.	16ccc)
.	.	8F 8A-	.	(16b-
.	.	.	.	16bb-JJ)
=124	=124	=124	=124	=124
2D	2V7d	8r	2AA-	(16ee-LL
.	.	.	.	16eee-)
.	.	4BB- 4F	.	(16dd
.	.	.	.	16dddJJ)
.	.	.	.	(16ccLL
.	.	.	.	16ccc)
.	.	8BB- 8F	.	(16b-
.	.	.	.	16bb-JJ)
*	*	*v	*v	*
=125	=125	=125	=125
4T	4Ib	8r	(16ee-LL
.	.	.	16eee-)
.	.	8GG 8BB- 8E-	(16b-
.	.	.	16bb-JJ)
4P	4ii7b	8r	(16ccLL
.	.	.	16ccc)
.	.	8AA- 8C 8E-	(16f
.	.	.	16ffJJ)
=126	=126	=126	=126
4D	4Ic	8r	(16b-LL
.	.	.	16bb-)
.	.	8BB- 8E- 8G	(16e-
.	.	.	16ee-JJ)
4D	4viioD7/vi	8r	(16a-LL
.	.	.	16aa-)
.	.	8BB 8F 8A-	(16d
.	.	.	16ddJJ)
=127	=127	=127	=127
2D	2viioD7b/V	2C 2E- 2G- 2A	(16e-LL
.	.	.	16ee-)
.	.	.	(16g-
.	.	.	16gg-JJ)
.	.	.	(16aLL
.	.	.	16aa)
.	.	.	(16cc
.	.	.	16cccJJ)
*-	*-	*-	*-
!!!OTL: Zwolf Variationen in Es, uber die Romanze 'Je suis Lindor' aus der Komodie 'Le Barbier de Seville'
!!!Variation: Variation 5 d
!!!COM: Mozart
**function	**harm	**kern	**kern
*	*	*clefF4	*clefG2
*	*	*k[b-e-a-]	*k[b-e-a-]
*M2/4	*M2/4	*M2/4	*M2/4
*E-:	*E-:	*E-:	*E-:
=128	=128	=128	=128
8D	8iiom7c	8C- 8F 8A-	(16ee-LL
.	.	.	16eee-)
4.D	4.V7	4.BB- 4.D 4.F 4.A-	(16dd
.	.	.	16dddJJ)
.	.	.	(16ccLL
.	.	.	16ccc)
.	.	.	(16b-
.	.	.	16bb-JJ)
=129	=129	=129	=129
8D	8viioD7/V	8AA 8C 8G-	(16ee-LL
.	.	.	16eee-)
4.D	4.V7d	4.AA- 4.BB- 4.D 4.F	(16dd
.	.	.	16dddJJ)
.	.	.	(16ccLL
.	.	.	16ccc)
.	.	.	(16b-
.	.	.	16bb-JJ)
=130	=130	=130	=130
*	*	*^	*
4T	4Ib	8r	4GG	(16ee-LL
.	.	.	.	16eee-)
.	.	4E-	.	(16b
.	.	.	.	16bbJJ)
8P	8IV	.	8AA-L	(16ccLL
.	.	.	.	16ccc)
8P	8V7b/V	[8E-	8AAJ	(16f
.	.	.	.	16ffJJ)
=131	=131	=131	=131	=131
4D	4Cc	8E-L]	2BB-	(16b-LL
.	.	.	.	16bb-)
.	.	8GJ	.	(16e-
.	.	.	.	16ee-JJ)
4D	4V7	8FL	.	(16a-LL
.	.	.	.	16aa-)
.	.	8A-J	.	(16d
.	.	.	.	16ddJJ)
*	*	*v	*v	*
=132	=132	=132	=132
2T	2I	8E-L 8G	(16e-LL
.	.	.	16ee-JJ)
.	.	8BB-J	8r
.	.	8EE-	4r
.	.	8r	.
*-	*-	*-	*-
!!!OTL: Zwolf Variationen in Es, uber die Romanze 'Je suis Lindor' aus der Komodie 'Le Barbier de Seville'
!!!Variation: Variation 6 a
!!!COM: Mozart
**function	**harm	**kern	**kern
*	*	*clefF4	*clefG2
*	*	*k[b-e-a-]	*k[b-e-a-]
*M2/4	*M2/4	*M2/4	*M2/4
*E-:	*E-:	*E-:	*E-:
=133	=133	=133	=133
2T	2I	16EE-LL	(4g 4b-
.	.	16E-	.
.	.	16DD	.
.	.	16DJJ	.
.	.	16EE-LL	8e-L) 8g
.	.	16E-	.
.	.	16DD	8e-J 8g
.	.	16DJJ	.
=134	=134	=134	=134
2T	2I	16EE-LL	4.e- 4.g
.	.	16E-	.
.	.	16DD	.
.	.	16DJJ	.
.	.	16CCLL	.
.	.	16C	.
.	.	16BBB-	8e-
.	.	16BB-JJ	.
=135	=135	=135	=135
8P	8ii7b	16AAA-LL	8e-L 8f
.	.	16AA-	.
8P	8V7b/V	16AAA	8e-J 8f
.	.	16AAJJ	.
4P	4Ic	16BBB-LL	[8e-L 8f
.	.	16BB-	.
.	.	16BBB	8e-J] 8g
.	.	16BBJJ	.
=136	=136	=136	=136
8P	8vi7	16CCLL	8e-L 8b-
.	.	16C	.
8D	8viio	16DD	8fJ 8a-
.	.	16DJJ	.
4T	4I	16EE-LL	8e- 8g
.	.	16E-	.
.	.	16BB-	8r
.	.	16B-JJ	.
*-	*-	*-	*-
!!!OTL: Zwolf Variationen in Es, uber die Romanze 'Je suis Lindor' aus der Komodie 'Le Barbier de Seville'
!!!Variation: Variation 6 b
!!!COM: Mozart
**function	**harm	**kern	**kern
*	*	*clefF4	*clefG2
*	*	*k[b-e-a-]	*k[b-e-a-]
*M2/4	*M2/4	*M2/4	*M2/4
*E-:	*E-:	*E-:	*E-:
=137	=137	=137	=137
*	*	*	*^
4T	4I	16EE-LL	4.b-	4g
.	.	16E-	.	.
.	.	16E-	.	.
.	.	16e-JJ	.	.
4T	4V7d	16DLL	.	8a-L
.	.	16d	.	.
.	.	16AA-	(16ddLL	8fJ
.	.	16A-JJ	16b-JJ)	.
=138	=138	=138	=138	=138
4T	4Ib	16GGLL	(16ee-LL	8e-L
.	.	16G	16b-JJ)	.
.	.	16E-	4b-	8gJ
.	.	16e-JJ	.	.
4T	4V7d	16DLL	.	8a-L
.	.	16d	.	.
.	.	16AA-	(16ddLL	8fJ
.	.	16A-JJ	16b-JJ)	.
=139	=139	=139	=139	=139
8T	8Ib	16GGLL	8ee-L	8e-L
.	.	16G	.	.
8T	8I	16EE-	(8b-J	8gJ
.	.	16E-JJ	.	.
8P	8iib	16AA-LL	8a-L	8fL
.	.	16A-	.	.
8P	8viiom7/V	16AA	8gJ)	8e-J
.	.	16AJJ	.	.
=140	=140	=140	=140	=140
4D	4Cc	16BB-LL	(4g	4e-
.	.	16B-	.	.
.	.	16AA	.	.
.	.	16AJJ	.	.
4D	4V	16BB-LL	8f)	8d
.	.	16D	.	.
.	.	16F	8r	8r
.	.	16B-JJ	.	.
*	*	*	*v	*v
*-	*-	*-	*-
!!!OTL: Zwolf Variationen in Es, uber die Romanze 'Je suis Lindor' aus der Komodie 'Le Barbier de Seville'
!!!Variation: Variation 6 c
!!!COM: Mozart
**function	**harm	**kern	**kern
*	*	*clefF4	*clefG2
*	*	*k[b-e-a-]	*k[b-e-a-]
*M2/4	*M2/4	*M2/4	*M2/4
*E-:	*E-:	*E-:	*E-:
=141	=141	=141	=141
8D	8V	16BBB-LL	8B-L 8d 8f
.	.	16BB-	.
8D	8V7c/V	16CC	8AJ 8e- 8f
.	.	16CJJ	.
8D	8Vb	16DDLL	8B-L 8d 8f
.	.	16D	.
8D	8V	16BBB-	8B-J 8d 8f 8b-
.	.	16BB-JJ	.
=142	=142	=142	=142
4.D	4.I	16EE-LL	(4B- 4f 4a-
.	.	16E-	.
.	.	16FF	.
.	.	16FJJ	.
.	.	16GGLL	8e-L) 8g
.	.	16G	.
*	*	*	*^
8D	8viiom7/V	16AA	8ee-J	8g
.	.	16AJJ	.	.
=143	=143	=143	=143	=143
8D	8V	16BB-LL	8ee-L	8fL
.	.	16B-	.	.
8D	8V7c/V	16C	16ddL	8e-J 8a
.	.	16cJJ	16ccJJ	.
8D	8Vb	16DLL	8b-L	8f
.	.	16d	.	.
*	*	*	*v	*v
8D	8V	16BB-	8ddJ 8bb-
.	.	16B-JJ	.
=144	=144	=144	=144
2T	2I	16E-LL	(4b- 4ff 4aa-
.	.	16e-	.
.	.	16BB-	.
.	.	16B-JJ	.
.	.	16GGLL	8b-L) 8ee- 8gg
.	.	16G	.
.	.	16EE-	8b-J
.	.	16E-JJ	.
!!!OTL: Zwolf Variationen in Es, uber die Romanze 'Je suis Lindor' aus der Komodie 'Le Barbier de Seville'
!!!Variation: Variation 6 d
!!!COM: Mozart
**function	**harm	**kern	**kern
*	*	*clefF4	*clefG2
*	*	*k[b-e-a-]	*k[b-e-a-]
*M2/4	*M2/4	*M2/4	*M2/4
*E-:	*E-:	*E-:	*E-:
=145	=145	=145	=145
*	*	*	*^
4D	4V7	16BBB-LL	(8ee-	2f 2a-
.	.	16BB-	.	.
.	.	16BB-	4dd)	.
.	.	16B-JJ	.	.
4D	4iioc	16C-LL	.	.
.	.	16c-	.	.
.	.	16CC-	8ff	.
.	.	16C-JJ	.	.
=146	=146	=146	=146	=146
4D	4V7	16BBB-LL	(8ee-	4.f 4.a-
.	.	16BB-	.	.
.	.	16BB-	4dd)	.
.	.	16B-JJ	.	.
4D	4V7d	16AA-LL	.	.
.	.	16A-	.	.
.	.	16AAA-	(16ccLL	8d 8f
.	.	16AA-JJ	16b-JJ)	.
=147	=147	=147	=147	=147
4T	4Ib	16GGGLL	(8ee-L	4.e-
.	.	16GG	.	.
.	.	16GG	8b-J)	.
.	.	16GJJ	.	.
4P	4ii7b	16AAA-LL	(8ccL	.
.	.	16AA-	.	.
.	.	16AA-	16b-L	8f
.	.	16A-JJ	16a-JJ)	.
=148	=148	=148	=148	=148
4D	4Cc	16BB-LL	(4g	4.e-
.	.	16B-	.	.
.	.	16AA	.	.
.	.	16AJJ	.	.
4D	4V	16BB-LL	8fL)	.
.	.	16B-	.	.
.	.	16BBB-	8b-J	8d
.	.	16BB-JJ	.	.
=149	=149	=149	=149	=149
4D	4V7b/vi	16BBBLL	(8a-	4d 4f
.	.	16BB	.	.
.	.	16BB	4g)	.
.	.	16BJJ	.	.
8T	8vi	16CLL	.	8e-L
.	.	16c	.	.
*	*	*	*v	*v
*-	*-	*-	*-
!!!OTL: Zwolf Variationen in Es, uber die Romanze 'Je suis Lindor' aus der Komodie 'Le Barbier de Seville'
!!!Variation: Variation 6 e
!!!COM: Mozart
**function	**harm	**kern	**kern
*	*	*clefF4	*clefG2
*	*	*k[b-e-a-]	*k[b-e-a-]
*M2/4	*M2/4	*M2/4	*M2/4
*E-:	*E-:	*E-:	*E-:
*	*	*	*^
8D	8viioD7b/V	16CC	[8ee-	8g-J 8a
.	.	16CJJ	.	.
=150	=150	=150	=150	=150
4D	4V7	16BBB-LL	8ee-]	2f 2a-
.	.	16BB-	.	.
.	.	16BB-	4dd	.
.	.	16B-JJ	.	.
4D	4iioc	16C-LL	.	.
.	.	16c-	.	.
.	.	16CC-	8ff	.
.	.	16C-JJ	.	.
=151	=151	=151	=151	=151
4D	4V7	16BBB-LL	(8ee-	4.f 4.a-
.	.	16BB-	.	.
.	.	16BB-	4dd)	.
.	.	16B-JJ	.	.
4D	4V7d	16AA-LL	.	.
.	.	16A-	.	.
.	.	16AAA-	16aa-LL	8b-
.	.	16AA-JJ	16ddJJ	.
=152	=152	=152	=152	=152
4T	4Ib	16GGGLL	(16ee-LL	4b-
.	.	16GG	16dd	.
.	.	16GG	16ee-	.
.	.	16GJJ	16b-JJ)	.
4P	4iib	16AAA-LL	(16ddLL	8a-L
.	.	16AA-	16cc	.
.	.	16AA-	16b-	16gL
.	.	16A-JJ	16a-JJ)	16fJJ
=153	=153	=153	=153	=153
4D	4Cc	16BB-LL	(4g	4.e-
.	.	16B-	.	.
.	.	16AA	.	.
.	.	16AJJ	.	.
4D	4V	16BB-LL	8fL)	.
.	.	16B-	.	.
.	.	16BBB-	8b-J	8d
.	.	16BB-JJ	.	.
=154	=154	=154	=154	=154
2T	2I	16EE-LL	2e-	2G 2B-
.	.	16GG	.	.
.	.	16BB-	.	.
.	.	16E-JJ	.	.
.	.	8EE-	.	.
.	.	8r	.	.
*	*	*	*v	*v
*-	*-	*-	*-
!!!OTL: Zwolf Variationen in Es, uber die Romanze 'Je suis Lindor' aus der Komodie 'Le Barbier de Seville'
!!!Variation: Variation 7 a
!!!COM: Mozart
**function	**harm	**kern	**kern
*	*	*clefF4	*clefG2
*	*	*k[b-e-a-]	*k[b-e-a-]
*M2/4	*M2/4	*M2/4	*M2/4
*E-:	*E-:	*E-:	*E-:
=155	=155	=155	=155
2T	2I	4EE- 4GG 4BB- 4E-	4b- 4ee- 4gg 4bb-
.	.	4EE- 4GG 4BB- 4E-	4g 4b- 4ee- 4gg
=156	=156	=156	=156
4T	4I	4EE- 4GG 4BB- 4E-	4e- 4g 4b- 4ee-
4T	4Ib	8GG 8BB- 8E-	16r
.	.	.	(32ee-LLL
.	.	.	32ddJJ
.	.	8r	32ccLL
.	.	.	32b-
.	.	.	32a-
.	.	.	32gJJJ
=157	=157	=157	=157
4P	4ii7b	4AA- 4C 4E-	16fLL)
.	.	.	(32ffL
.	.	.	32ee-JJ
.	.	.	32ddLL
.	.	.	32cc
.	.	.	32b-
.	.	.	32a-JJJ
4P	4Ic	4BB- 4E- 4G	16gLL)
.	.	.	(32ggL
.	.	.	32ffJJ
.	.	.	32ee-LL
.	.	.	32dd
.	.	.	32cc
.	.	.	32b-JJJ
=158	=158	=158	=158
8P	8IVb	8CL 8E- 8A-	8a-L)
8D	8V7b	8DJ 8F 8B-	8b-J 8ff 8aa-
4T	4I	16E-LL 16G 16B-	8b- 8ee- 8gg
.	.	(32GL	.
.	.	32A-JJ	.
.	.	32B-LL	8r
.	.	32c	.
.	.	32d	.
.	.	32B-JJJ	.
*-	*-	*-	*-
!!!OTL: Zwolf Variationen in Es, uber die Romanze 'Je suis Lindor' aus der Komodie 'Le Barbier de Seville'
!!!Variation: Variation 7 b
!!!COM: Mozart
**function	**harm	**kern	**kern
*	*	*clefF4	*clefG2
*	*	*k[b-e-a-]	*k[b-e-a-]
*M2/4	*M2/4	*M2/4	*M2/4
*E-:	*E-:	*E-:	*E-:
=159	=159	=159	=159
4T	4I	4.e-	16r
.	.	.	(32ee-LLL
.	.	.	32ddJJ
.	.	.	32ccLL
.	.	.	32b-
.	.	.	32a-
.	.	.	32gJJJ
4T	4Vb	.	16fLL
.	.	.	32gL
.	.	.	32a-JJ
.	.	8d)	32b-LL
.	.	.	32a-
.	.	.	32g
.	.	.	32fJJJ
=160	=160	=160	=160
4T	4I	16r	8g)
.	.	(32e-LLL	.
.	.	32dJJ	.
.	.	32cLL	(4ee-
.	.	32B-	.
.	.	32A-	.
.	.	32GJJJ	.
4T	4Vc	16FLL	.
.	.	32GL	.
.	.	32A-JJ	.
.	.	32B-LL	8dd)
.	.	32A-	.
.	.	32G	.
.	.	32FJJJ	.
=161	=161	=161	=161
8T	8Ib	8GL)	16ee-LL
.	.	.	(32bb-L
.	.	.	32aa-JJ
8T	8I	8E-J	32ggLL
.	.	.	32ff
.	.	.	32ee-
.	.	.	32ddJJJ
8P	8IV	8AA-L	32ccLLL
.	.	.	32b-
.	.	.	32a-
.	.	.	32gJJ
8P	8Vb/V	8AAJ	32fLL
.	.	.	32e-
.	.	.	32d
.	.	.	32cJJJ
=162	=162	=162	=162
2D	2V	[4BB-	16B-LL
.	.	.	32cL
.	.	.	32dJJ
.	.	.	32e-LL
.	.	.	32f
.	.	.	32g
.	.	.	32aJJJ
.	.	16BB-LL]	4b-)
.	.	(32AAL	.
.	.	32GGJJ	.
.	.	32FFLL	.
.	.	32EE-	.
.	.	32DD	.
.	.	32CCJJJ	.
*-	*-	*-	*-
!!!OTL: Zwolf Variationen in Es, uber die Romanze 'Je suis Lindor' aus der Komodie 'Le Barbier de Seville'
!!!Variation: Variation 7 c
!!!COM: Mozart
**function	**harm	**kern	**kern
*	*	*clefF4	*clefG2
*	*	*k[b-e-a-]	*k[b-e-a-]
*M2/4	*M2/4	*M2/4	*M2/4
*E-:	*E-:	*E-:	*E-:
=163	=163	=163	=163
.	.	.	(q32ff
.	.	.	q32gg
2D	2V7	4BBB-)	16aa-LL)
.	.	.	16ff
.	.	.	16dd
.	.	.	16b-JJ
.	.	16r	(8.a-L
.	.	16FLL	.
.	.	16D	.
.	.	16BB-JJ	32gLL
.	.	.	32a-JJJ
=164	=164	=164	=164
2D	2I	4E-	32gLLL
.	.	.	32b-
.	.	.	32cc
.	.	.	32ddJJ
.	.	.	32ee-LL
.	.	.	32ff
.	.	.	32gg
.	.	.	32aa-JJJ
.	.	16r	32bb-LLL
.	.	.	32ccc
.	.	16B-LL	32ddd
.	.	.	32eee-J
.	.	16G	16bb-JJ)
.	.	16E-JJ	16r
=165	=165	=165	=165
2D	2V7d	16A-LL	4d 4f 4b-
.	.	16F	.
.	.	16D	.
.	.	16BB-JJ	.
.	.	(8.AA-L	16r
.	.	.	16ffLL
.	.	.	16dd
.	.	32GGLL	16b-JJ
.	.	32AA-JJJ	.
=166	=166	=166	=166
2T	2Ib	32GGLLL	4g 4b- 4ee-
.	.	32BB-	.
.	.	32C	.
.	.	32DJJ	.
.	.	32E-LL	.
.	.	32F	.
.	.	32G	.
.	.	32A-JJJ	.
.	.	32B-LLL	16r
.	.	32c	.
.	.	32d	16bb-LL
.	.	32e-J	.
.	.	16B-JJ)	16gg
.	.	16r	16ee-JJ
*-	*-	*-	*-
!!!OTL: Zwolf Variationen in Es, uber die Romanze 'Je suis Lindor' aus der Komodie 'Le Barbier de Seville'
!!!Variation: Variation 7 d
!!!COM: Mozart
**function	**harm	**kern	**kern
*	*	*clefG2	*clefG2
*	*	*k[b-e-a-]	*k[b-e-a-]
*M2/4	*M2/4	*M2/4	*M2/4
*E-:	*E-:	*E-:	*E-:
=167	=167	=167	=167
2D	2V7	4B- 4d 4f 4a-	32aa-LLL
.	.	.	32bb-
.	.	.	32ccc
.	.	.	32bb-JJ
.	.	.	32aa-LL
.	.	.	32gg
.	.	.	32ff
.	.	.	32eeJJJ
.	.	4B- 4d 4f 4a-	32ffLLL
.	.	.	32gg
.	.	.	32aa-
.	.	.	32ggJJ
.	.	.	32ffLL
.	.	.	32ee-
.	.	.	32dd
.	.	.	32ccJJJ
=168	=168	=168	=168
2D	2V7	4B- 4d 4f 4a-	32ddLLL
.	.	.	32ee-
.	.	.	32ff
.	.	.	32ee-JJ
.	.	.	32ddLL
.	.	.	32cc
.	.	.	32b-
.	.	.	32aJJJ
.	.	4B- 4d	32b-LLL
.	.	.	32a
.	.	.	32b-
.	.	.	32ccJJ
.	.	.	32b-LL
.	.	.	32a-
.	.	.	32g
.	.	.	32f#JJJ
=169	=169	=169	=169
*	*	*^	*
4T	4I	4.e-	4r	32gLLL
.	.	.	.	32a-
.	.	.	.	32b-
.	.	.	.	32ccJJ
.	.	.	.	32ddLL
.	.	.	.	32ee-
.	.	.	.	32ff
.	.	.	.	32ggJJJ
4P	4iib	.	4A-	32ccLLL
.	.	.	.	32dd
.	.	.	.	32ee-
.	.	.	.	32ffJJ
.	.	8f	.	32ggLL
.	.	.	.	32aa-
.	.	.	.	32bb-
.	.	.	.	32cccJJJ
=170	=170	=170	=170	=170
4D	4Cc	8g	8B-	32cccLLL
.	.	.	.	32bb-
.	.	.	.	32aa
.	.	.	.	32bb-JJ
*	*	*v	*v	*
.	.	8r	32aa-LL
.	.	.	32gg
.	.	.	32ff
.	.	.	32ee-JJJ
4D	4V7	8B- 8d 8f 8a-	32bb-LLL
.	.	.	32aa-
.	.	.	32gg
.	.	.	32aa-JJ
.	.	8r	32ggLL
.	.	.	32ff
.	.	.	32ee-
.	.	.	32ddJJJ
=171	=171	=171	=171
2T	2I	8e- 8g	32ee-LLL
.	.	.	32ff
.	.	.	32gg
.	.	.	32aa-JJ
.	.	8r	32bb-LL
.	.	.	32aa-
.	.	.	32gg
.	.	.	32ffJJJ
.	.	4r	32ee-LLL
.	.	.	32dd
.	.	.	32cc
.	.	.	32b-JJ
.	.	.	32a-LL
.	.	.	32g
.	.	.	32f
.	.	.	32e-JJJ
*-	*-	*-	*-
!!!OTL: Zwolf Variationen in Es, uber die Romanze 'Je suis Lindor' aus der Komodie 'Le Barbier de Seville'
!!!Variation: Variation 7 d
!!!COM: Mozart
**function	**harm	**kern	**kern
*	*	*clefG2	*clefG2
*	*	*k[b-e-a-]	*k[b-e-a-]
*M2/4	*M2/4	*M2/4	*M2/4
*E-:	*E-:	*E-:	*E-:
=172	=172	=172	=172
4P	4IV	32a-LLL	4r
.	.	32b-	.
.	.	32cc	.
.	.	32b-JJ	.
.	.	32a-LL	.
.	.	32g	.
.	.	32f	.
.	.	32eJJJ	.
4P	4ii	32fLLL	8ff 8aa-
.	.	32g	.
.	.	32a-	.
.	.	32gJJ	.
.	.	32fLL	8r
.	.	32e-	.
.	.	32d	.
.	.	32cJJJ	.
*	*	*clefF4	*
=173	=173	=173	=173
4D	4viio	32dLLL	8ff 8aa-
.	.	32e-	.
.	.	32f	.
.	.	32e-JJ	.
.	.	32dLL	8r
.	.	32c	.
.	.	32B-	.
.	.	32AJJJ	.
4D	4V7	32B-LLL	8ffL 8aa-
.	.	32A	.
.	.	32B-	.
.	.	32cJJ	.
.	.	32B-LL	8b-J 8dd
.	.	32A-	.
.	.	32G	.
.	.	32FJJJ	.
=174	=174	=174	=174
4T	4Ib	32GLLL	8ee-L
.	.	32F	.
.	.	32E-	.
.	.	32DJJ	.
.	.	32CLL	8ee-J 8bb-
.	.	32BB-	.
.	.	32AA-	.
.	.	32GGJJJ	.
4P	4IV	32AA-LLL	8ee-L 8ccc
.	.	32BB-	.
.	.	32C	.
.	.	32DJJ	.
.	.	32E-LL	8ee-J 8eee-
.	.	32F	.
.	.	32G	.
.	.	32A-JJJ	.
=175	=175	=175	=175
4D	4Cc	4B-	(32bb-LLL
.	.	.	32aa-
.	.	.	32gg
.	.	.	32ffJJ
.	.	.	32ee-LL
.	.	.	32dd
.	.	.	32cc
.	.	.	32b-JJJ
4D	4V7	8r	32a-LLL
.	.	.	32g
.	.	.	32f
.	.	.	32e-JJ
.	.	16r	32dLL
.	.	.	32c
.	.	32r	32B-
.	.	32BB-	32A-JJJ)
=176	=176	=176	=176
2T	2I	8E-L	(4F 4A- 4B- 4d
.	.	8BB-J	.
.	.	8EE-	8G) 8B- 8e-
.	.	8r	8r
*-	*-	*-	*-
!!!OTL: Zwolf Variationen in Es, uber die Romanze 'Je suis Lindor' aus der Komodie 'Le Barbier de Seville'
!!!Variation: Variation 8 a
!!!COM: Mozart
**function	**harm	**kern	**kern
*e-	*e-	*clefF4	*clefG2
*	*	*k[b-e-a-d-g-c-]	*k[b-e-a-d-g-c-]
*M2/4	*M2/4	*M2/4	*M2/4
*e-	*e-	*e-	*e-
8T	8i	8r	8b-
=177	=177	=177	=177
4.T	4.i	4r	(8.g-L
.	.	.	16a-Jk
.	.	8r	8b-L
8T	8V	8B-	8dJ)
=178	=178	=178	=178
4.T	4.ib	(8.G-L	4.e-
.	.	16A-Jk	.
.	.	8B-L	.
8T	8i	8E-J)	8g-
=179	=179	=179	=179
*	*	*^	*
4T	4viioD7c	(4c-	(4A-	(16g-LL
.	.	.	.	16f
.	.	.	.	16a-
.	.	.	.	16dJJ
8T	8ib	4B-)	8G-L)	8e-L
8T	8i	.	8E-J	8b-J)
*	*	*v	*v	*
=180	=180	=180	=180
4D	4V7b	(4D [4B-	(16b-LL
.	.	.	16a-
.	.	.	16cc-
.	.	.	16fJJ
4T	4i	8E-) 8B-]	8g-L
.	.	8r	8b-J)
*-	*-	*-	*-
!!!OTL: Zwolf Variationen in Es, uber die Romanze 'Je suis Lindor' aus der Komodie 'Le Barbier de Seville'
!!!Variation: Variation 8 b
!!!COM: Mozart
**function	**harm	**kern	**kern
*e-	*e-	*clefG2	*clefG2
*	*	*k[b-e-a-d-g-c-]	*k[b-e-a-d-g-c-]
*M2/4	*M2/4	*M2/4	*M2/4
*e-	*e-	*e-	*e-
=181	=181	=181	=181
4T	4i	8r	16ee-'LL
.	.	.	(16b-
.	.	(8e- 8g-	16cc-
.	.	.	16b-JJ)
4T	4viio	8dL 8f	16r
.	.	.	(16aa-LL
.	.	8fJ) 8a-	16ff
.	.	.	16ddJJ
=182	=182	=182	=182
4T	4i	8r	16ee-'LL)
.	.	.	(16b-
.	.	(8e- 8g-	16cc-
.	.	.	16b-JJ)
4T	4viio	8dL 8f	16r
.	.	.	(16aa-LL
.	.	8fJ) 8a-	16ff
.	.	.	16ddJJ
=183	=183	=183	=183
8T	8i	8e-L 8g-	16ee-LL
.	.	.	16gg-JJ)
*	*	*clefF4	*
8T	8ib	(8G-J	16r
.	.	.	16g- 16b-
8P	8iiob	8A-L	16r
.	.	.	16f 16a-
8P	8viioD7/V	8AJ)	16r
.	.	.	16e- 16g-
=184	=184	=184	=184
*	*	*	*^
4D	4Cc	4.B-	(16g-LL	(4e-
.	.	.	16b-	.
.	.	.	16a	.
.	.	.	16b-JJ)	.
8D	8V	.	8f	8d-)
16.D	16.V	16.r	16.r	16.r
*	*	*	*v	*v
=	=	=	=
*-	*-	*-	*-
!!!OTL: Zwolf Variationen in Es, uber die Romanze 'Je suis Lindor' aus der Komodie 'Le Barbier de Seville'
!!!Variation: Variation 8 c
!!!COM: Mozart
**function	**harm	**kern	**kern
*e-	*e-	*clefF4	*clefG2
*	*	*k[b-e-a-d-g-c-]	*k[b-e-a-d-g-c-]
*M2/4	*M2/4	*M2/4	*M2/4
*e-	*e-	*e-	*e-
32D	32V7	32r	(32b-
=185	=185	=185	=185
*	*	*^	*
4.D	4.V7	8F 8A-	8BB-L	16.aa-LL
.	.	.	.	32ffk
.	.	4F 4A-	8C-J	16.dd)
.	.	.	.	(32ddJJk
.	.	.	8BB-L	16.aa-LL
.	.	.	.	32ffk
8D	8V7d	8BB- 8F	8AA-J	16.dd)
.	.	.	.	(32ddJJk
=186	=186	=186	=186	=186
2D	2ib	8BB- 8E-	8GG-	16.ee-LL
.	.	.	.	32ffk
.	.	8r	8r	16.gg-
.	.	.	.	32aa-JJk
.	.	4r	4r	8bb-)
.	.	.	.	16r
.	.	.	.	32r
.	.	.	.	(32B-
=187	=187	=187	=187	=187
4.D	4.V7	8F 8A-	8BB-L	16.a-LL
.	.	.	.	32fk
.	.	4F 4A-	8C-J	16.d)
.	.	.	.	(32dJJk
.	.	.	8BB-L	16.a-LL
.	.	.	.	32fk
8D	8V7d	8BB- 8F	8AA-J	16.d)
.	.	.	.	(32dJJk
=188	=188	=188	=188	=188
2T	2ib	8BB- 8E-	8GG-	16.e-LL
.	.	.	.	32fk
.	.	8r	8r	16.g-
.	.	.	.	32a-JJk
.	.	4r	4r	8b-L)
.	.	.	.	([8bb-J
*	*	*v	*v	*
*-	*-	*-	*-
!!!OTL: Zwolf Variationen in Es, uber die Romanze 'Je suis Lindor' aus der Komodie 'Le Barbier de Seville'
!!!Variation: Variation 8 d
!!!COM: Mozart
**function	**harm	**kern	**kern
*e-	*e-	*clefF4	*clefG2
*	*	*k[b-e-a-d-g-c-]	*k[b-e-a-d-g-c-]
*M2/4	*M2/4	*M2/4	*M2/4
*e-	*e-	*e-	*e-
=189	=189	=189	=189
*	*	*^	*
4P	4ivb	8.e-L	8.c-L	16bb-LL]
.	.	.	.	16aa-
.	.	.	.	16bb-
.	.	16d-Jk	16B-Jk	16ccc-JJ)
4P	4iiob	8c-L	4A-	(24ccc-LL
.	.	.	.	24bb-
.	.	.	.	24aa-J
.	.	[8fJ	.	24gg-L
.	.	.	.	24ff
.	.	.	.	24ee-JJ)
=190	=190	=190	=190	=190
*	*	*	*	*^
2D	2V7	2f]	2B-	(4ee-	16r
.	.	.	.	.	(16a-LL
.	.	.	.	.	16b-
.	.	.	.	.	16cc-JJ
.	.	.	.	4dd)	16b-LL
.	.	.	.	.	16a-
.	.	.	.	.	16g
.	.	.	.	.	16a-JJ)
*	*	*	*	*v	*v
*	*	*v	*v	*
=191	=191	=191	=191
4T	4VI	8c- 8e-	16r
.	.	.	(16g-LL 16ee-
.	.	8r	16f 16dd
.	.	.	16g-JJ) 16ee-
4P	4IV	8A- 8e-	16r
.	.	.	(16a-LL 16cc-
.	.	8r	16g 16b-
.	.	.	16a-JJ) 16cc-
=192	=192	=192	=192
4D	4Cc	8B- 8e-	16r
.	.	.	(16g-LL 16b-
.	.	8r	16f 16a
.	.	.	16g-JJ) 16b-
4D	4V7	8BB- 8B-	16r
.	.	.	(16dLL 16f
.	.	8r	16f 16a-
.	.	.	16A-JJ) 16d
=193	=193	=193	=193
4D	4viioD7d	(8.CC-L 8.C-	(4A- 4d
.	.	32BB-LL	.
.	.	32AA-JJJ	.
4T	4ib	(8.GGG-L) 8.GG-	8G-L) 8B- 8e-
.	.	.	([8bb-J
.	.	32FFLL	.
.	.	32EE-JJJ	.
*-	*-	*-	*-
!!!OTL: Zwolf Variationen in Es, uber die Romanze 'Je suis Lindor' aus der Komodie 'Le Barbier de Seville'
!!!Variation: Variation 8 e
!!!COM: Mozart
**function	**harm	**kern	**kern
*e-	*e-	*clefF4	*clefG2
*	*	*k[b-e-a-d-g-c-]	*k[b-e-a-d-g-c-]
*M2/4	*M2/4	*M2/4	*M2/4
*e-	*e-	*e-	*e-
=194	=194	=194	=194
2D	4V7b	4DD)	16bb-LL]
.	.	.	16gg
.	.	.	16aa-
.	.	.	16bb-JJ
.	4V7d	8r	24ccc-LL
.	.	.	24bb-
.	.	.	24aa-J
*	*	*clefG2	*
.	.	([8a-	24ggL
.	.	.	24ff
.	.	.	24ee-JJ)
=195	=195	=195	=195
4D	4Ib	16a-LL]	(4ee-
.	.	16g	.
.	.	16a-	.
.	.	16b-JJ	.
4D	4V7	24cc-LL	8ddL)
.	.	24b-	.
.	.	24a-J)	.
.	.	(24a-L	8b-J
.	.	24g	.
.	.	24fJJ)	.
=196	=196	=196	=196
4T	4ib	8g-	16r
.	.	.	(16ee-LL
.	.	8r	16gg-
.	.	.	16b-JJ)
4P	4iv	8a-	16r
.	.	.	(16cc-LL
.	.	8r	16ee-
.	.	.	16a-JJ)
*	*	*clefF4	*
=197	=197	=197	=197
4.D	4.i	4r	8.g-L
.	.	.	16a-Jk
.	.	8r	8b-L
8D	8V7	8BB-	8FJ 8A- 8B- 8d
=198	=198	=198	=198
2T	2i	8E-L	(4F 4A- 4B- 4d
.	.	8BB-J	.
.	.	8EE-	8G-) 8B- 8e-
.	.	8r	8r
*-	*-	*-	*-
!!!OTL: Zwolf Variationen in Es, uber die Romanze 'Je suis Lindor' aus der Komodie 'Le Barbier de Seville'
!!!Variation: Variation 9 a
!!!COM: Mozart
**function	**harm	**kern	**kern
*	*	*clefG2	*clefG2
*	*	*k[b-e-a-]	*k[b-e-a-]
*M2/4	*M2/4	*M2/4	*M2/4
*E-:	*E-:	*E-:	*E-:
=199	=199	=199	=199
2T	2I	(8gL 8b-	32r
.	.	.	32bb-LLL
.	.	.	32b-
.	.	.	32bb-JJ
.	.	8e-J) 8g	32b-LL
.	.	.	32bb-
.	.	.	32b-
.	.	.	32bb-JJJ
.	.	8e-L 8g	32b-LLL
.	.	.	32bb-
.	.	.	32b-
.	.	.	32bb-JJ
.	.	8e-J 8g	32b-LL
.	.	.	32bb-
.	.	.	32b-
.	.	.	32bb-JJJ
=200	=200	=200	=200
4.T	4.I	4.e- 4.g	32b-LLL
.	.	.	32bb-
.	.	.	32b-
.	.	.	32bb-JJ
.	.	.	32b-LL
.	.	.	32bb-
.	.	.	32b-
.	.	.	32bb-JJJ
.	.	.	32b-LLL
.	.	.	32bb-
.	.	.	32b-
.	.	.	32bb-JJ
8T	8Ib	8G 8e-	32b-LL
.	.	.	32bb-
.	.	.	32b-
.	.	.	32bb-JJJ
=201	=201	=201	=201
4.T	4.V	8B-L 8f	32b-LLL
.	.	.	32bb-
.	.	.	32b-
.	.	.	32bb-JJ
.	.	8B-J 8f	32b-LL
.	.	.	32bb-
.	.	.	32b-
.	.	.	32bb-JJJ
.	.	(8B-L 8f	32b-LLL
.	.	.	32bb-
.	.	.	32b-
.	.	.	32bb-JJ
8T	8I	8e-J) 8g	32b-LL
.	.	.	32bb-
.	.	.	32b-
.	.	.	32bb-JJJ
=202	=202	=202	=202
4D	4V7b	8dL 8a-	32b-LLL
.	.	.	32bb-
.	.	.	32b-
.	.	.	32bb-JJ
.	.	(16fL	32b-LL
.	.	.	32bb-
.	.	16a-JJ	32b-
.	.	.	32bb-JJJ
4T	4I	8e-) 8g	32b-LLL
.	.	.	32bb-
.	.	.	32b-
.	.	.	32bb-JJ
.	.	8r	32b-LL
.	.	.	32bb-
.	.	.	32b-
.	.	.	32bb-JJJ
*-	*-	*-	*-
!!!OTL: Zwolf Variationen in Es, uber die Romanze 'Je suis Lindor' aus der Komodie 'Le Barbier de Seville'
!!!Variation: Variation 9 b
!!!COM: Mozart
**function	**harm	**kern	**kern
*	*	*clefF4	*clefG2
*	*	*k[b-e-a-]	*k[b-e-a-]
*M2/4	*M2/4	*M2/4	*M2/4
*E-:	*E-:	*E-:	*E-:
=203	=203	=203	=203
*	*	*^	*
4T	4Ib	4e-	4G	32b-LLL
.	.	.	.	32bb-
.	.	.	.	32b-
.	.	.	.	32bb-JJ
.	.	.	.	32b-LL
.	.	.	.	32bb-
.	.	.	.	32b-
.	.	.	.	32bb-JJJ
4T	4V7d	(16dLL	4A-	32b-LLL
.	.	.	.	32bb-
.	.	16e-	.	32b-
.	.	.	.	32bb-JJ
.	.	16f	.	32b-LL
.	.	.	.	32bb-
.	.	16dJJ	.	32b-
.	.	.	.	32bb-JJJ
=204	=204	=204	=204	=204
4T	4Ib	4e-)	4G	32b-LLL
.	.	.	.	32bb-
.	.	.	.	32b-
.	.	.	.	32bb-JJ
.	.	.	.	32b-LL
.	.	.	.	32bb-
.	.	.	.	32b-
.	.	.	.	32bb-JJJ
4T	4V7d	(16dLL	4A-	32b-LLL
.	.	.	.	32bb-
.	.	16e-	.	32b-
.	.	.	.	32bb-JJ
.	.	16f	.	32b-LL
.	.	.	.	32bb-
.	.	16dJJ	.	32b-
.	.	.	.	32bb-JJJ
=205	=205	=205	=205	=205
4T	4Ib	8e-L)	8GL	32b-LLL
.	.	.	.	32bb-
.	.	.	.	32b-
.	.	.	.	32bb-JJ
.	.	(8B-J	8GJ	32b-LL
.	.	.	.	32bb-
.	.	.	.	32b-
.	.	.	.	32bb-JJJ
8T	8V7c	8A-L	8FL	32b-LLL
.	.	.	.	32bb-
.	.	.	.	32b-
.	.	.	.	32bb-JJ
8T	8I	8GJ)	8E-J	32b-LL
.	.	.	.	32bb-
.	.	.	.	32b-
.	.	.	.	32bb-JJJ
=206	=206	=206	=206	=206
4D	4Cc	(4E- 4G	2BB-	32b-LLL
.	.	.	.	32bb-
.	.	.	.	32b-
.	.	.	.	32bb-JJ
.	.	.	.	32b-LL
.	.	.	.	32bb-
.	.	.	.	32b-
.	.	.	.	32bb-JJJ
4D	4V	4D) 4F	.	32b-LLL
.	.	.	.	32bb-
.	.	.	.	32b-
.	.	.	.	32bb-JJ
.	.	.	.	32b-LL
.	.	.	.	32bb-
.	.	.	.	32b-
.	.	.	.	32bb-JJJ
*	*	*v	*v	*
*-	*-	*-	*-
!!!OTL: Zwolf Variationen in Es, uber die Romanze 'Je suis Lindor' aus der Komodie 'Le Barbier de Seville'
!!!Variation: Variation 9 c
!!!COM: Mozart
**function	**harm	**kern	**kern
*	*	*clefF4	*clefG2
*	*	*k[b-e-a-]	*k[b-e-a-]
*M2/4	*M2/4	*M2/4	*M2/4
*E-:	*E-:	*E-:	*E-:
=207	=207	=207	=207
2D	4.Vb	8DL 8F	32b-LLL
.	.	.	32bb-
.	.	.	32b-
.	.	.	32bb-JJ
.	.	8DJ 8F	32b-LL
.	.	.	32bb-
.	.	.	32b-
.	.	.	32bb-JJJ
.	.	8DL 8F	32b-LLL
.	.	.	32bb-
.	.	.	32b-
.	.	.	32bb-JJ
.	8V7c	8FJ 8A-	32b-LL
.	.	.	32bb-
.	.	.	32b-
.	.	.	32bb-JJJ
=208	=208	=208	=208
*	*	*^	*
2D	4V7	(4F 4A-	2BB-	32b-LLL
.	.	.	.	32bb-
.	.	.	.	32b-
.	.	.	.	32bb-JJ
.	.	.	.	32b-LL
.	.	.	.	32bb-
.	.	.	.	32b-
.	.	.	.	32bb-JJJ
.	4I	8E-L) 8G	.	32b-LLL
.	.	.	.	32bb-
.	.	.	.	32b-
.	.	.	.	32bb-JJ
.	.	8B-J	.	32b-LL
.	.	.	.	32bb-
.	.	.	.	32b-
.	.	.	.	32bb-JJJ
=209	=209	=209	=209	=209
*	*	*v	*v	*
2D	4.Vb	8B-L	32b-LLL
.	.	.	32bb-
.	.	.	32b-
.	.	.	32bb-JJ
.	.	8DJ 8F	32b-LL
.	.	.	32bb-
.	.	.	32b-
.	.	.	32bb-JJJ
.	.	8DL 8F	32b-LLL
.	.	.	32bb-
.	.	.	32b-
.	.	.	32bb-JJ
.	V7c	8FJ 8A-	32b-LL
.	.	.	32bb-
.	.	.	32b-
.	.	.	32bb-JJJ
=210	=210	=210	=210
*	*	*^	*
2D	4V7	(4F 4A-	2BB-	32b-LLL
.	.	.	.	32bb-
.	.	.	.	32b-
.	.	.	.	32bb-JJ
.	.	.	.	32b-LL
.	.	.	.	32bb-
.	.	.	.	32b-
.	.	.	.	32bb-JJJ
.	4I	8E-L) 8G	.	32b-LLL
.	.	.	.	32bb-
.	.	.	.	32b-
.	.	.	.	32bb-JJ
.	.	8B-J	.	32b-LL
.	.	.	.	32bb-
.	.	.	.	32b-
.	.	.	.	32bb-JJJ
=211	=211	=211	=211	=211
2D	2V7c	(8e-	2F 2A-	32b-LLL
.	.	.	.	32bb-
.	.	.	.	32b-
.	.	.	.	32bb-JJ
.	.	4d	.	32b-LL
.	.	.	.	32bb-
.	.	.	.	32b-
.	.	.	.	32bb-JJJ
.	.	.	.	32b-LLL
.	.	.	.	32bb-
.	.	.	.	32b-
.	.	.	.	32bb-JJ
.	.	16cLL	.	32b-LL
.	.	.	.	32bb-
.	.	16B-JJ)	.	32b-
.	.	.	.	32bb-JJJ
=212	=212	=212	=212	=212
2D	2V7c	(8e-	2F 2A-	32b-LLL
.	.	.	.	32bb-
.	.	.	.	32b-
.	.	.	.	32bb-JJ
.	.	4d	.	32b-LL
.	.	.	.	32bb-
.	.	.	.	32b-
.	.	.	.	32bb-JJJ
.	.	.	.	32b-LLL
.	.	.	.	32bb-
.	.	.	.	32b-
.	.	.	.	32bb-JJ
.	.	16cLL	.	32b-LL
.	.	.	.	32bb-
.	.	16B-JJ)	.	32b-
.	.	.	.	32bb-JJJ
*	*	*v	*v	*
=213	=213	=213	=213
4T	4Ib	8G 8e-	8b-'L 8bb-'
.	.	8r	8b'J 8bb'
4P	4IV	8A- 8e-	8cc' 8ccc'
.	.	8r	16r
.	.	.	16aa-'
=214	=214	=214	=214
*	*	*^	*
4D	4Cc	8r	2BB-	(16ggLL
.	.	.	.	16bb-JJ)
.	.	(8G	.	16r
.	.	.	.	16ee-'
4D	4V7	8A-L	.	(16ffLL
.	.	.	.	16aa-JJ)
.	.	8FJ)	.	16r
.	.	.	.	16dd'
*	*	*v	*v	*
=215	=215	=215	=215
2T	2I	8G 8E-	(32ee-LLL
.	.	.	32ff
.	.	.	32gg
.	.	.	32aa-JJ
.	.	8r	32bb-LL
.	.	.	32aa-
.	.	.	32gg
.	.	.	32ffJJJ
.	.	4r	32ee-LLL
.	.	.	32dd
.	.	.	32cc
.	.	.	32b-JJ
.	.	.	32a-LL
.	.	.	32g
.	.	.	32f
.	.	.	32e-JJJ)
*-	*-	*-	*-
!!!OTL: Zwolf Variationen in Es, uber die Romanze 'Je suis Lindor' aus der Komodie 'Le Barbier de Seville'
!!!Variation: Variation 9 d
!!!COM: Mozart
**function	**harm	**kern	**kern
*	*	*clefF4	*clefG2
*	*	*k[b-e-a-]	*k[b-e-a-]
*M2/4	*M2/4	*M2/4	*M2/4
*E-:	*E-:	*E-:	*E-:
=216	=216	=216	=216
*	*	*^	*
2D	2V7c	(8e-	2F 2A-	32b-LLL
.	.	.	.	32bb-
.	.	.	.	32b-
.	.	.	.	32bb-JJ
.	.	4d	.	32b-LL
.	.	.	.	32bb-
.	.	.	.	32b-
.	.	.	.	32bb-JJJ
.	.	.	.	32b-LLL
.	.	.	.	32bb-
.	.	.	.	32b-
.	.	.	.	32bb-JJ
.	.	16cLL	.	32b-LL
.	.	.	.	32bb-
.	.	16B-JJ)	.	32b-
.	.	.	.	32bb-JJJ
=217	=217	=217	=217	=217
2D	2V7c	(8e-	2F 2A-	32b-LLL
.	.	.	.	32bb-
.	.	.	.	32b-
.	.	.	.	32bb-JJ
.	.	4d	.	32b-LL
.	.	.	.	32bb-
.	.	.	.	32b-
.	.	.	.	32bb-JJJ
.	.	.	.	32b-LLL
.	.	.	.	32bb-
.	.	.	.	32b-
.	.	.	.	32bb-JJ
.	.	16cLL	.	32b-LL
.	.	.	.	32bb-
.	.	16B-JJ)	.	32b-
.	.	.	.	32bb-JJJ
*	*	*v	*v	*
=218	=218	=218	=218
4T	4Ib	8G 8e-	8b-'L 8bb-'
.	.	8r	8b'J 8bb'
4P	4IV	8A- 8e-	8cc' 8ccc'
.	.	8r	16r
.	.	.	16aa-'
=219	=219	=219	=219
*	*	*^	*
4D	4Cc	8r	2BB-	(16ggLL
.	.	.	.	16bb-JJ)
.	.	(8G	.	16r
.	.	.	.	16ee-'
4D	4V7	8A-L	.	(16ffLL
.	.	.	.	16aa-JJ)
.	.	8FJ)	.	16r
.	.	.	.	16dd'
*	*	*v	*v	*
=220	=220	=220	=220
2T	2I	8E-L	(4f 4a- 4b- 4dd
.	.	8BB-J	.
.	.	8EE-	8e-) 8g 8b- 8ee-
.	.	8r	8r
*-	*-	*-	*-
!!!OTL: Zwolf Variationen in Es, uber die Romanze 'Je suis Lindor' aus der Komodie 'Le Barbier de Seville'
!!!Variation: Variation 10 a
!!!COM: Mozart
**function	**harm	**kern	**kern
*	*	*clefF4	*clefG2
*	*	*k[b-e-a-]	*k[b-e-a-]
*M2/4	*M2/4	*M2/4	*M2/4
*E-:	*E-:	*E-:	*E-:
=221	=221	=221	=221
2T	2I	32r	(4g 4b-
.	.	32E-LLL	.
.	.	32EE-	.
.	.	32E-JJ	.
.	.	32EE-LL	.
.	.	32E-	.
.	.	32EE-	.
.	.	32E-JJJ	.
.	.	32EE-LLL	8e-L) 8g
.	.	32E-	.
.	.	32EE-	.
.	.	32E-JJ	.
.	.	32EE-LL	8e-J 8g
.	.	32E-	.
.	.	32EE-	.
.	.	32E-JJJ	.
=222	=222	=222	=222
2T	2I	32EE-LLL	4.e- 4.g
.	.	32E-	.
.	.	32EE-	.
.	.	32E-JJ	.
.	.	32EE-LL	.
.	.	32E-	.
.	.	32EE-	.
.	.	32E-JJJ	.
.	.	32EE-LLL	.
.	.	32E-	.
.	.	32EE-	.
.	.	32E-JJ	.
.	.	32EE-LL	(8G [8e-
.	.	32E-	.
.	.	32EE-	.
.	.	32E-JJJ	.
=223	=223	=223	=223
*	*	*	*^
4T	4viio	32EE-LLL	4.f	8e-L]
.	.	32E-	.	.
.	.	32EE-	.	.
.	.	32E-JJ	.	.
.	.	32EE-LL	.	8dJ
.	.	32E-	.	.
.	.	32EE-	.	.
.	.	32E-JJJ	.	.
4T	4V7/IV	32EE-LLL	.	4d-)
.	.	32E-	.	.
.	.	32EE-	.	.
.	.	32E-JJ	.	.
.	.	32EE-LL	8g	.
.	.	32E-	.	.
.	.	32EE-	.	.
.	.	32E-JJJ	.	.
*	*	*	*v	*v
=224	=224	=224	=224
8T	8vi7b	32EE-LLL	(8cL 8e- 8b-
.	.	32E-	.
.	.	32EE-	.
.	.	32E-JJ	.
8T	8viio	32EE-LL	8dJ 8f 8a-
.	.	32E-	.
.	.	32EE-	.
.	.	32E-JJJ	.
4T	4I	32EE-LLL	8e-) 8g
.	.	32E-	.
.	.	32EE-	.
.	.	32E-JJ	.
.	.	32EE-LL	8r
.	.	32E-	.
.	.	32EE-	.
.	.	32E-JJJ	.
*-	*-	*-	*-
!!!OTL: Zwolf Variationen in Es, uber die Romanze 'Je suis Lindor' aus der Komodie 'Le Barbier de Seville'
!!!Variation: Variation 10 b
!!!COM: Mozart
**function	**harm	**kern	**kern
*	*	*clefF4	*clefG2
*	*	*k[b-e-a-]	*k[b-e-a-]
*M2/4	*M2/4	*M2/4	*M2/4
*E-:	*E-:	*E-:	*E-:
=225	=225	=225	=225
4T	4I	32EE-LLL	(4g 4ee-
.	.	32E-	.
.	.	32EE-	.
.	.	32E-JJ	.
.	.	32EE-LL	.
.	.	32E-	.
.	.	32EE-	.
.	.	32E-JJJ	.
4T	4viio	32EE-LLL	8a-L) 8dd
.	.	32E-	.
.	.	32EE-	.
.	.	32E-JJ	.
.	.	32EE-LL	(16a-L 16dd
.	.	32E-	.
.	.	32EE-	16ffJJ)
.	.	32E-JJJ	.
=226	=226	=226	=226
4T	4I	32EE-LLL	(4g 4ee-
.	.	32E-	.
.	.	32EE-	.
.	.	32E-JJ	.
.	.	32EE-LL	.
.	.	32E-	.
.	.	32EE-	.
.	.	32E-JJJ	.
4T	4viio	32EE-LLL	8a-L) 8dd
.	.	32E-	.
.	.	32EE-	.
.	.	32E-JJ	.
.	.	32EE-LL	(16a-L 16dd
.	.	32E-	.
.	.	32EE-	16ffJJ)
.	.	32E-JJJ	.
=227	=227	=227	=227
4T	4I	32EE-LLL	8gL 8ee-
.	.	32E-	.
.	.	32EE-	.
.	.	32E-JJ	.
.	.	32EE-LL	(8gJ 8b-
.	.	32E-	.
.	.	32EE-	.
.	.	32E-JJJ	.
8T	8viio	32DDLLL	8fL 8a-
.	.	32D	.
.	.	32DD	.
.	.	32DJJ	.
8T	8I	32EE-LL	8e-J) 8g
.	.	32E-	.
.	.	32EE-	.
.	.	32E-JJJ	.
=228	=228	=228	=228
4D	4Cc	32BBB-LLL	(4e- 4g
.	.	32BB-	.
.	.	32BBB-	.
.	.	32BB-JJ	.
.	.	32BBB-LL	.
.	.	32BB-	.
.	.	32BBB-	.
.	.	32BB-JJJ	.
4D	4V	32BBB-LLL	4d) 4f
.	.	32BB-	.
.	.	32BBB-	.
.	.	32BB-JJ	.
.	.	32BBB-LL	.
.	.	32BB-	.
.	.	32BBB-	.
.	.	32BB-JJJ	.
*-	*-	*-	*-
!!!OTL: Zwolf Variationen in Es, uber die Romanze 'Je suis Lindor' aus der Komodie 'Le Barbier de Seville'
!!!Variation: Variation 10 c
!!!COM: Mozart
**function	**harm	**kern	**kern
*	*	*clefF4	*clefG2
*	*	*k[b-e-a-]	*k[b-e-a-]
*M2/4	*M2/4	*M2/4	*M2/4
*E-:	*E-:	*E-:	*E-:
=229	=229	=229	=229
2D	4.V	32BBB-LLL	4d 4f
.	.	32BB-	.
.	.	32BBB-	.
.	.	32BB-JJ	.
.	.	32BBB-LL	.
.	.	32BB-	.
.	.	32BBB-	.
.	.	32BB-JJJ	.
.	.	32BBB-LLL	(8dL 8f
.	.	32BB-	.
.	.	32BBB-	.
.	.	32BB-JJ	.
.	8V7	32BBB-LL	8fJ) 8a-
.	.	32BB-	.
.	.	32BBB-	.
.	.	32BB-JJJ	.
=230	=230	=230	=230
*	*	*	*^
2D	2viioD7/V	32AAALLL	(8a-	4.c 4.e-
.	.	32AA	.	.
.	.	32AAA	.	.
.	.	32AAJJ	.	.
.	.	32AAALL	4g-	.
.	.	32AA	.	.
.	.	32AAA	.	.
.	.	32AAJJJ	.	.
.	.	32AAALLL	.	.
.	.	32AA	.	.
.	.	32AAA	.	.
.	.	32AAJJ	.	.
.	.	32AAALL	16fLL	8r
.	.	32AA	.	.
.	.	32AAA	16e-JJ)	.
.	.	32AAJJJ	.	.
*	*	*	*v	*v
=231	=231	=231	=231
4D	4V	32BBB-LLL	8dL 8b-
.	.	32BB-	.
.	.	32BBB-	.
.	.	32BB-JJ	.
.	.	32BBB-LL	8fJ
.	.	32BB-	.
.	.	32BBB-	.
.	.	32BB-JJJ	.
4D	4viioD7/vi	32BBBLLL	(8dL 8f
.	.	32BB	.
.	.	32BBB	.
.	.	32BBJJ	.
.	.	32BBBLL	8fJ) 8a-
.	.	32BB	.
.	.	32BBB	.
.	.	32BBJJJ	.
=232	=232	=232	=232
4.D	4.vi	32CCLLL	(8d 8f 8a-
.	.	32C	.
.	.	32CC	.
.	.	32CJJ	.
.	.	32CCLL	4e-) 4g
.	.	32C	.
.	.	32CC	.
.	.	32CJJJ	.
.	.	32CCLLL	.
.	.	32C	.
.	.	32CC	.
.	.	32CJJ	.
8D	8viioD7b/V	32CCLL	8g- 8a 8ee-
.	.	32C	.
.	.	32CC	.
.	.	32CJJJ	.
=233	=233	=233	=233
*	*	*	*^
2D	2V7	32BBB-LLL	(8ee-	2f 2a-
.	.	32BB-	.	.
.	.	32BBB-	.	.
.	.	32BB-JJ	.	.
.	.	32BBB-LL	4dd	.
.	.	32BB-	.	.
.	.	32BBB-	.	.
.	.	32BB-JJJ	.	.
.	.	32BBB-LLL	.	.
.	.	32BB-	.	.
.	.	32BBB-	.	.
.	.	32BB-JJ	.	.
.	.	32BBB-LL	16ccLL	.
.	.	32BB-	.	.
.	.	32BBB-	16b-JJ)	.
.	.	32BB-JJJ	.	.
=234	=234	=234	=234	=234
2D	2V7d	32AAA-LLL	(8ee-	2f 2b-
.	.	32AA-	.	.
.	.	32AAA-	.	.
.	.	32AA-JJ	.	.
.	.	32AAA-LL	4dd	.
.	.	32AA-	.	.
.	.	32AAA-	.	.
.	.	32AA-JJJ	.	.
.	.	32AAA-LLL	.	.
.	.	32AA-	.	.
.	.	32AAA-	.	.
.	.	32AA-JJ	.	.
.	.	32AAA-LL	16ccLL	.
.	.	32AA-	.	.
.	.	32AAA-	16b-JJ)	.
.	.	32AA-JJJ	.	.
=235	=235	=235	=235	=235
4T	4Ib	(16GGGLL	(8ee-L	4.e-
.	.	16BBB-	.	.
.	.	16EE-	8b-J)	.
.	.	16GGJJ	.	.
4P	4iib	16AAA-LL	(16ddLL	.
.	.	16CC	16cc	.
.	.	16FF	16b-	8f
.	.	16AA-JJ	16a-JJ)	.
*	*	*	*v	*v
=236	=236	=236	=236
4D	4Cc	16BBB-LL	(4e- 4g
.	.	16EE-	.
.	.	16GG	.
.	.	16BB-JJ	.
4D	4V	16BBB-LL	8dL) 8f
.	.	16DD	.
.	.	16FF	8b-J
.	.	16BB-JJ)	.
=237	=237	=237	=237
2T	2I	(16E-LL	(4d 4f 4a-
.	.	16D	.
.	.	16E-	.
.	.	16DJJ	.
.	.	16E-LL	8e-L) 8g
.	.	16BB-	.
.	.	16GG	8b-J
.	.	16EE-JJ)	.
*-	*-	*-	*-
!!!OTL: Zwolf Variationen in Es, uber die Romanze 'Je suis Lindor' aus der Komodie 'Le Barbier de Seville'
!!!Variation: Variation 10 d
!!!COM: Mozart
**function	**harm	**kern	**kern
*	*	*clefF4	*clefG2
*	*	*k[b-e-a-]	*k[b-e-a-]
*M2/4	*M2/4	*M2/4	*M2/4
*E-:	*E-:	*E-:	*E-:
=238	=238	=238	=238
*	*	*	*^
4D	4V7	32BBB-LLL	(8ee-	2f 2a-
.	.	32BB-	.	.
.	.	32BBB-	.	.
.	.	32BB-JJ	.	.
.	.	32BBB-LL	4dd	.
.	.	32BB-	.	.
.	.	32BBB-	.	.
.	.	32BB-JJJ	.	.
4D	4V7d	32CC-LLL	.	.
.	.	32C-	.	.
.	.	32CC-	.	.
.	.	32C-JJ	.	.
.	.	32CC-LL	8ff)	.
.	.	32C-	.	.
.	.	32CC-	.	.
.	.	32C-JJJ	.	.
=239	=239	=239	=239	=239
4D	4V7	32BBB-LLL	(8ee-	2f 2a-
.	.	32BB-	.	.
.	.	32BBB-	.	.
.	.	32BB-JJ	.	.
.	.	32BBB-LL	4dd	.
.	.	32BB-	.	.
.	.	32BBB-	.	.
.	.	32BB-JJJ	.	.
4D	4V7d	32AAA-LLL	.	.
.	.	32AA-	.	.
.	.	32AAA-	.	.
.	.	32AA-JJ	.	.
.	.	32AAA-LL	16aa-LL	.
.	.	32AA-	.	.
.	.	32AAA-	16ddJJ)	.
.	.	32AA-JJJ	.	.
=240	=240	=240	=240	=240
4T	4Ib	(16GGGLL	(8ee-L	4.e-
.	.	16BBB-	.	.
.	.	16EE-	8b-J)	.
.	.	16GGJJ	.	.
4P	4iib	16AAA-LL	(16ddLL	.
.	.	16CCn	16cc	.
.	.	16FF	16b-	8f
.	.	16AA-JJ	16a-JJ)	.
*	*	*	*v	*v
=241	=241	=241	=241
4D	4Cc	16BBB-LL	(4e- 4g
.	.	16EE-	.
.	.	16GG	.
.	.	16BB-JJ	.
4D	4V	16BBB-LL	(8dL) 8f
.	.	16DD	.
.	.	16FF	8b-J)
.	.	16BB-JJ	.
=242	=242	=242	=242
2T	2I	16EE-LL	4G 4B- 4e-
.	.	16GG	.
.	.	16BB-	.
.	.	16E-JJ	.
.	.	8EE-)	4r
.	.	8r	.
*-	*-	*-	*-
!!!OTL: Zwolf Variationen in Es, uber die Romanze 'Je suis Lindor' aus der Komodie 'Le Barbier de Seville'
!!!Variation: Variation 11 a
!!!COM: Mozart
**function	**harm	**kern	**kern
*	*	*clefF4	*clefG2
*	*	*k[b-e-a-]	*k[b-e-a-]
*M4/4	*M4/4	*M4/4	*M4/4
*E-:	*E-:	*E-:	*E-:
8T	8I	8r	8b-
=243	=243	=243	=243
*	*	*^	*
1T	1I	2G	2E-	(4.b-
.	.	.	.	16aLL
.	.	.	.	16b-JJ
.	.	8B-L	4E-	8gL)
.	.	8B-	.	8g
.	.	8B-	4r	8g
.	.	8B-J	.	8gJ
=244	=244	=244	=244	=244
2.T	2.I	(4.B-	2E-	(8gL
.	.	.	.	16gL)
.	.	.	.	32a-L
.	.	.	.	32gJJJ
.	.	.	.	16b-LL
.	.	.	.	16a-
.	.	8A-)	.	16g
.	.	.	.	16fJJ
.	.	4G	4E-	8e-)
.	.	.	.	4e-
*	*	*v	*v	*
4T	4Ib	4G 4B-	.
.	.	.	8e-
=245	=245	=245	=245
2P	2iib	4A- 4c	(16eLL
.	.	.	16f)
.	.	.	16f'
.	.	.	16f'JJ
.	.	4A- 4c	(16eLL
.	.	.	16f)
.	.	.	16f'
.	.	.	16f'JJ
2P	2iiib	4B- 4d	(16f#LL
.	.	.	16g)
.	.	.	16g'
.	.	.	16g'JJ
.	.	4B- 4d	(16f#LL
.	.	.	16g)
.	.	.	16g'
.	.	.	16g'JJ
=246	=246	=246	=246
4P	4IVb	4c 4e-	(8b-L
.	.	.	16aL
.	.	.	[16a-JJ
4D	4viiom7	4d 4f	16a-LL]
.	.	.	32b-L
.	.	.	32ccJ
.	.	.	16b-
.	.	.	16a-JJ
2T	2I	4e-	32gLLL
.	.	.	32b-
.	.	.	32a-
.	.	.	32gJJ
.	.	.	32a-LL
.	.	.	32b-
.	.	.	32cc
.	.	.	32ddJJJ
.	.	4r	32ee-LLL
.	.	.	32ff
.	.	.	32gg
.	.	.	32aa-JJ
.	.	.	32bb-LL
.	.	.	32gg
.	.	.	32aa-
.	.	.	32ffJJJ)
*-	*-	*-	*-
!!!OTL: Zwolf Variationen in Es, uber die Romanze 'Je suis Lindor' aus der Komodie 'Le Barbier de Seville'
!!!Variation: Variation 11 b
!!!COM: Mozart
**function	**harm	**kern	**kern
*	*	*clefF4	*clefG2
*	*	*k[b-e-a-]	*k[b-e-a-]
*M4/4	*M4/4	*M4/4	*M4/4
*E-:	*E-:	*E-:	*E-:
=247	=247	=247	=247
*	*	*^	*
2T	2I	8r	2E-	(16ffLL
.	.	.	.	16ee-J)
.	.	8G 8B-	.	([8ee-J
.	.	8GL 8B-	.	16ee-LL]
.	.	.	.	32ffL
.	.	.	.	32ggJ
.	.	8GJ 8B-	.	16ff)
.	.	.	.	16ee-'JJ
2T	2V7	8r	4F	(16.ee-LL
.	.	.	.	32ddJk)
.	.	4A- 4B-	.	8aa-'J
.	.	.	4BB-	16r
.	.	.	.	(16aa-LL
.	.	8A- 8B-	.	16ff
.	.	.	.	16ddJJ)
=248	=248	=248	=248	=248
2T	2I	8r	2E-	(16ffLL
.	.	.	.	16ee-J)
.	.	8G 8B-	.	([8ee-J
.	.	8GL 8B-	.	16ee-LL]
.	.	.	.	32ffL
.	.	.	.	32ggJ
.	.	8GJ 8B-	.	16ff)
.	.	.	.	16ee-'JJ
2T	2V7	8r	4F	(32ee-LLL
.	.	.	.	32dd
.	.	.	.	32ff
.	.	.	.	32ee-JJ
.	.	4A- 4B-	.	32ggLL
.	.	.	.	32ff
.	.	.	.	32aa-
.	.	.	.	32ggJJJ
.	.	.	4BB-	32bb-LLL
.	.	.	.	32aa-
.	.	.	.	32ccc
.	.	.	.	32aa-JJ
.	.	8A- 8B-	.	32ggLL
.	.	.	.	32ff
.	.	.	.	32ee-
.	.	.	.	32ddJJJ)
=249	=249	=249	=249	=249
2T	2Ib	4B-	4G	(16.ee-LL
.	.	.	.	32ffk
.	.	.	.	16gg)
.	.	.	.	16ff'JJ
.	.	8r	4r	(16ee-LL
.	.	.	.	16dd
.	.	16r	.	16cc
.	.	16B-	.	16b-JJ)
4T	4V7b	(16B-LL	4D	(16b-LL
.	.	16AJJ)	.	16a
.	.	16r	.	16ff)
.	.	16A-	.	16a-'JJ
4T	4I	(16A-LL	4E-	(16a-LL
.	.	16GJJ)	.	16g
.	.	8r	.	16ee-)
.	.	.	.	16g'JJ
*	*	*v	*v	*
=250	=250	=250	=250
2D	2Cc	8r	16b-'LL
.	.	.	(16b-
.	.	8BB- 8E- 8G	16a
.	.	.	16b-JJ)
.	.	8BB-L 8E- 8G	(16ccLL
.	.	.	16b-)
.	.	8BB-J 8E- 8G	(16a-
.	.	.	16gJJ)
2D	2V	8BB-L 8D 8F	4f
.	.	8BB- 8B-	.
.	.	8FF 8F	4r
.	.	8DDJ 8D	.
*-	*-	*-	*-
!!!OTL: Zwolf Variationen in Es, uber die Romanze 'Je suis Lindor' aus der Komodie 'Le Barbier de Seville'
!!!Variation: Variation 11 c
!!!COM: Mozart
**function	**harm	**kern	**kern
*	*	*clefF4	*clefG2
*	*	*k[b-e-a-]	*k[b-e-a-]
*M4/4	*M4/4	*M4/4	*M4/4
*E-:	*E-:	*E-:	*E-:
=251	=251	=251	=251
1D	2.V	16BBB-LL	4B- 4d 4f 4b-
.	.	16BB-	.
.	.	16BB-	.
.	.	16BB-JJ	.
.	.	16DDLL	4B- 4d 4f
.	.	16BB-	.
.	.	16BB-	.
.	.	16BB-JJ	.
.	.	16FFLL	4B- 4d 4f
.	.	16BB-	.
.	.	16BB-	.
.	.	16BB-JJ	.
.	4V7	16BBB-LL	4B- 4d 4f 4a-
.	.	16BB-	.
.	.	16BB-	.
.	.	16BB-JJ	.
=252	=252	=252	=252
1D	1I	16EE-LL	(8B-L 8d 8f [8a-
.	.	16BB-	.
.	.	16BB-	32a-LL]
.	.	.	32gJJ
.	.	16BB-JJ	48fLL
.	.	.	48e-
.	.	.	48dJJJ
.	.	16GGLL	28e-LLL
.	.	.	28f
.	.	16BB-	.
.	.	.	28g
.	.	.	28a-
.	.	16BB-	.
.	.	.	28b-
.	.	.	28cc
.	.	16BB-JJ	.
.	.	.	28ddJJ
.	.	16EE-LL	48ee-LL
.	.	.	48ff
.	.	.	48gg
.	.	16BB-	48aa-
.	.	.	48bb-
.	.	.	48cccJJJ
.	.	16BB-	48dddLLL
.	.	.	48eee-
.	.	.	48ddd
.	.	16BB-JJ	48ccc
.	.	.	48bb-
.	.	.	48aa-JJ
.	.	16GGLL	48ggLL
.	.	.	48ff
.	.	.	48ee-
.	.	16BB-	48dd
.	.	.	48cc
.	.	.	48b-JJJ
.	.	16BB-	80a-LLL
.	.	.	80g
.	.	.	80f
.	.	.	80e-
.	.	.	80d
.	.	16BB-	80e-
.	.	.	80f
.	.	.	80e-
.	.	.	80g
.	.	.	80e-JJJ)
=253	=253	=253	=253
1D	2.V	24BBB-LL	4d 4f 4b-
.	.	24BB-	.
.	.	24BB-J	.
.	.	24BB-L	.
.	.	24BB-	.
.	.	24BB-JJ	.
.	.	24DDLL	4B- 4d 4f
.	.	24BB-	.
.	.	24BB-J	.
.	.	24BB-L	.
.	.	24BB-	.
.	.	24BB-JJ	.
.	.	24FFLL	4B- 4d 4f
.	.	24BB-	.
.	.	24BB-J	.
.	.	24BB-L	.
.	.	24BB-	.
.	.	24BB-JJ	.
.	4V7	24BBB-LL	4B- 4d 4f 4a-
.	.	24BB-	.
.	.	24BB-J	.
.	.	24BB-L	.
.	.	24BB-	.
.	.	24BB-JJ	.
=254	=254	=254	=254
1D	1I	24EE-LL	8B-L 8d 8f [8a-
.	.	24BB-	.
.	.	24BB-J	.
.	.	24BB-L	(16a-L]
.	.	24BB-	.
.	.	.	32gL
.	.	24BB-JJ	.
.	.	.	32fJJJ
.	.	24GGLL	32e-LLL
.	.	.	32d
.	.	24BB-	.
.	.	.	32e-
.	.	24BB-J	.
.	.	.	32eJJ
.	.	24BB-L	32fLL
.	.	.	32f#
.	.	24BB-	.
.	.	.	32g
.	.	24BB-JJ	.
.	.	.	32a-JJJ
.	.	4EE-	48aLLL
.	.	.	48b-
.	.	.	48b
.	.	.	48cc
.	.	.	48cc#
.	.	.	48ddJJ
.	.	.	48ee-LL
.	.	.	48ee#
.	.	.	48ff
.	.	.	48ff#
.	.	.	48gg
.	.	.	48aa-JJJ
.	.	4r	48aaLLL
.	.	.	48bb-
.	.	.	48bb
.	.	.	48ccc
.	.	.	48ccc#
.	.	.	48dddJJ
.	.	.	16.eee-L
.	.	.	32fffJJk)
=255	=255	=255	=255
1D	1V	8r	(4eee-
.	.	8B- 8d 8f	.
.	.	8B-L 8d 8f	8ddd)
.	.	8B-J 8d 8f	8r
.	.	2B- 2d 2f	16r
.	.	.	(16dddLL
.	.	.	16eee-
.	.	.	16fffJJ
.	.	.	16eee-LL
.	.	.	16ddd
.	.	.	16ccc
.	.	.	16bb-JJ)
=256	=256	=256	=256
1D	1V7d	8r	(4eee-
.	.	8A- 8B- 8f	.
.	.	8A-L 8B- 8f	8ddd)
.	.	8A-J 8B- 8f	8r
.	.	2A- 2B- 2f	16r
.	.	.	(16dddLL
.	.	.	16eee-
.	.	.	16fffJJ
.	.	.	16eee-LL
.	.	.	16ddd
.	.	.	16ccc
.	.	.	16bb-JJ)
=257	=257	=257	=257
2T	2Ib	4G 4B- 4e-	(16eee-LL
.	.	.	32dddJJk)
.	.	.	32r
.	.	.	(16eee-LL
.	.	.	32dddJJk)
.	.	.	32r
.	.	4r	(16eee-LL
.	.	.	32dddJJk)
.	.	.	32r
.	.	.	(16cccLL
.	.	.	32bbJJk)
.	.	.	32r
*	*	*^	*
4P	4IV	(4e-	2A- 2c	(32dddLLL
.	.	.	.	32ccc
.	.	.	.	32bb
.	.	.	.	32cccJJ
.	.	.	.	32bb-LL
.	.	.	.	32aa-
.	.	.	.	32gg
.	.	.	.	32aa-JJJ
4P	4iib	4f)	.	32ggLLL
.	.	.	.	32ff
.	.	.	.	32ee
.	.	.	.	32ffJJ
.	.	.	.	32ggLL
.	.	.	.	32aa-
.	.	.	.	32bb-
.	.	.	.	32cccJJJ)
*	*	*v	*v	*
=258	=258	=258	=258
2D	2Cc	8r	(8cccL
.	.	8B- 8e- 8g	16ee-Jk)
.	.	.	16r
.	.	8B-L 8e- 8g	8ee-L
.	.	8B-J 8e- 8g	(24bb-L
.	.	.	24gg
.	.	.	24ee-JJ)
2D	2viioD7/vi	8r	(16ee-LL
.	.	.	16ddJ)
.	.	8B 8d 8f 8a-	([8aa-J
.	.	8BL 8d 8f 8a-	16aa-LL]
.	.	.	32bb-L
.	.	.	32aa-JJ
.	.	8BJ 8d 8f 8a-	32ggLL
.	.	.	32ff
.	.	.	32ee-
.	.	.	32ddJJJ)
=259	=259	=259	=259
2T	2vi	(4c 4f 4a-	(8ddL
.	.	.	16.ffL
.	.	.	32ee-JJk)
.	.	8c) 8g	8ee-L
.	.	8r	[8e-J
*-	*-	*-	*-
!!!OTL: Zwolf Variationen in Es, uber die Romanze 'Je suis Lindor' aus der Komodie 'Le Barbier de Seville'
!!!Variation: Variation 11 d
!!!COM: Mozart
**function	**harm	**kern	**kern
*	*	*clefF4	*clefG2
*	*	*k[b-e-a-]	*k[b-e-a-]
*M4/4	*M4/4	*M4/4	*M4/4
*E-:	*E-:	*E-:	*E-:
2P	2viioD7b/V	2C 2E- 2G- 2A	(64e-LLLL]
.	.	.	64f
.	.	.	64e-
.	.	.	64dJJJ
.	.	.	48e-LL
.	.	.	48e
.	.	.	48f
.	.	.	48f#
.	.	.	48g
.	.	.	48a-JJ
.	.	.	48aLL
.	.	.	48b-
.	.	.	48bJJJ
.	.	.	48ccLLL
.	.	.	48cc#
.	.	.	48ddJJ
.	.	.	32ee-LL
.	.	.	32eeJJ
.	.	.	32ffLL
.	.	.	32gg-
.	.	.	64ffL
.	.	.	64aa-
.	.	.	64gg
.	.	.	128ffL
.	.	.	128ee-JJJJ
=260	=260	=260	=260
1D	1V7	8r	[8ee-L
.	.	8BB- 8D 8F 8A-	16ee-L]
.	.	.	64ddLL
.	.	.	64ee-
.	.	.	64ff
.	.	.	64ee-JJJJ
.	.	8BB-L 8D 8F 8A-	8dd
.	.	8BB-J 8D 8F 8A-	8r
.	.	2BB- 2D 2F 2A-	8r
.	.	.	(16ddLL
.	.	.	32ee-L
.	.	.	32ffJJJ)
.	.	.	(16ee-LL
.	.	.	32ffL
.	.	.	32ddJ)
.	.	.	(16cc
.	.	.	32ddL
.	.	.	32b-JJJ)
=261	=261	=261	=261
1D	1V7d	8r	(4ee- 4eee-
.	.	8AA- 8BB- 8D 8F	.
.	.	8AA-L 8BB- 8D 8F	8dd) 8ddd
.	.	8AA-J 8BB- 8D 8F	8r
.	.	2AA- 2BB- 2D 2F	16r
.	.	.	q64dd
.	.	.	(16ddd'LL
.	.	.	q64ee-
.	.	.	16eee-'
.	.	.	q64ff
.	.	.	16fff'JJ
.	.	.	q64ee-
.	.	.	16eee-'LL
.	.	.	q64dd
.	.	.	16ddd'
.	.	.	q64cc
.	.	.	16ccc'
.	.	.	q64b-
.	.	.	16bb-'JJ)
=262	=262	=262	=262
*	*	*^	*
2T	2Ib	4E-	2GG 2BB-	(16ee-LL 16eee-
.	.	.	.	32ddJJk) 32ddd
.	.	.	.	32r
.	.	.	.	(16ee-LL 16eee-
.	.	.	.	32ddJJk) 32ddd
.	.	.	.	32r
.	.	2E-	.	(16ee-LL 16eee-
.	.	.	.	16dd- 16ddd-
.	.	.	.	16cc 16ccc
.	.	.	.	16bJJ) 16bb
4P	4IV	.	2AA-	(32.ccLLL
.	.	.	.	64ccck
.	.	.	.	32.b-
.	.	.	.	64bb-JJk
.	.	.	.	32.a-LL
.	.	.	.	64aa-k
.	.	.	.	32.g
.	.	.	.	64ggJJJk
4P	4iib	4F	.	32.fLLL
.	.	.	.	64ffk
.	.	.	.	32.e-
.	.	.	.	64ee-JJk
.	.	.	.	32.dLL
.	.	.	.	64dd-k
.	.	.	.	32.c
.	.	.	.	64ccJJJk)
*	*	*v	*v	*
=263	=263	=263	=263
*	*	*clefG2	*
2D	2Cc	4B- 4e- 4g	[8b-L
.	.	.	(32b-LL]
.	.	.	32cc
.	.	.	32b-
.	.	.	32aJJJ
.	.	4B- 4e- 4g	48b-LLL
.	.	.	48b
.	.	.	48ccJJ
.	.	.	48cc#LL
.	.	.	48dd
.	.	.	48ee-JJ
.	.	.	48eeLL
.	.	.	48ff
.	.	.	48ff#JJ
.	.	.	48ggLL
.	.	.	48aa-
.	.	.	48aaJJJ
2D	2V7	4B- 4e- 4f	32bb-LLL
.	.	.	32gg
.	.	.	32aa-
.	.	.	32ffJ)
.	.	.	16.ff
.	.	.	32ggJJk
.	.	8B- 8d 8f	8aa-
.	.	8r	16r
.	.	.	16f 16a- 16b- 16dd
=264	=264	=264	=264
*	*	*clefF4	*
1T	1I	4e-	2f 2a- 2b- 2dd
.	.	4B-	.
.	.	4E-	8gL 8b- 8ee-
.	.	.	(16ddL
.	.	.	16ee-JJ
.	.	4r;	16ffLL
.	.	.	16ee-
.	.	.	16dd
.	.	.	16cc;JJ)
*-	*-	*-	*-
!!!OTL: Zwolf Variationen in Es, uber die Romanze 'Je suis Lindor' aus der Komodie 'Le Barbier de Seville'
!!!Variation: Variation 12 a
!!!COM: Mozart
**function	**harm	**kern	**kern
*	*	*clefF4	*clefG2
*	*	*k[b-e-a-]	*k[b-e-a-]
*M3/4	*M3/4	*M3/4	*M3/4
*E-:	*E-:	*E-:	*E-:
=265	=265	=265	=265
*	*	*^	*
2.T	2.I	8EE-L	2.EE-	4B- 4e- 4g 4b-
.	.	8GGJ	.	.
.	.	8BB-L	.	4B- 4e- 4g
.	.	8E-J	.	.
.	.	8BB-L	.	4B- 4e- 4g
.	.	8GGJ	.	.
=266	=266	=266	=266	=266
2.T	2.I	8EE-L	2.EE-	2B- 2e- 2g
.	.	8GGJ	.	.
.	.	8BB-L	.	.
.	.	8E-J	.	.
.	.	8BB-L	.	4B- 4e-
.	.	8GGJ	.	.
*	*	*v	*v	*
=267	=267	=267	=267
2T	2V	8BBB-L	4B- 4d 4f
.	.	8BB-J	.
.	.	8DDL	4B- 4f
.	.	8BB-J	.
4T	4I	8EE-L	4B- 4e- 4g
.	.	8BB-J	.
=268	=268	=268	=268
2D	2V7	8DDL	4f 4b-
.	.	8BB-J	.
.	.	8BBB-L	4d 4a-
.	.	8BB-J	.
4T	4I	8EE-L	4B- 4e- 4g
.	.	8BB-J	.
*-	*-	*-	*-
!!!OTL: Zwolf Variationen in Es, uber die Romanze 'Je suis Lindor' aus der Komodie 'Le Barbier de Seville'
!!!Variation: Variation 12 b
!!!COM: Mozart
**function	**harm	**kern	**kern
*	*	*clefF4	*clefG2
*	*	*k[b-e-a-]	*k[b-e-a-]
*M3/4	*M3/4	*M3/4	*M3/4
*E-:	*E-:	*E-:	*E-:
=269	=269	=269	=269
*	*	*	*^
2T	2I	8EE-L	2ee-	2g 2b-
.	.	8E-J	.	.
.	.	8GGL	.	.
.	.	8GJ	.	.
4T	4V7	8BB-L	(8ffL	4a- 4b-
.	.	8B-J	8ddJ)	.
=270	=270	=270	=270	=270
2T	2I	8EE-L	2ee-	2g 2b-
.	.	8E-J	.	.
.	.	8GGL	.	.
.	.	8GJ	.	.
4T	4V7	8BB-L	(8ffL	4a- 4b-
.	.	8B-J	8ddJ)	.
=271	=271	=271	=271	=271
4T	4I	8EE-L	(8ee-L	4g
.	.	8E-J	8b-J)	.
4T	4V7b	8DDL	4a-	4f
.	.	8DJ	.	.
4T	4I	8EE-L	4g	4e-
.	.	8E-J	.	.
*	*	*	*v	*v
=272	=272	=272	=272
2D	2Cc	8BBB-L	(2e- 2g 2B-
.	.	8AAJ	.
.	.	8BB-L	.
.	.	8AAJ	.
4D	4V	4BB-	4d) 4f 4B-
*-	*-	*-	*-
!!!OTL: Zwolf Variationen in Es, uber die Romanze 'Je suis Lindor' aus der Komodie 'Le Barbier de Seville'
!!!Variation: Variation 12 c
!!!COM: Mozart
**function	**harm	**kern	**kern
*	*	*clefF4	*clefG2
*	*	*k[b-e-a-]	*k[b-e-a-]
*M3/4	*M3/4	*M3/4	*M3/4
*E-:	*E-:	*E-:	*E-:
=273	=273	=273	=273
*	*	*	*^
2.D	2V	8BBB-L	4d 4f	4r
.	.	8BB-J	.	.
.	.	8DDL	4.d 4.f	2B-
.	.	8BB-J	.	.
.	4V7	8BBB-L	.	.
.	.	8BB-J	8f 8a-	.
=274	=274	=274	=274	=274
2.D	2.I	8EE-L	(8fL 8a-	4B-
.	.	8BB-J	8e-J) 8g	.
.	.	8GGL	4e- 4g	4B-
.	.	8BB-J	.	.
.	.	8EE-L	8r	4r
.	.	8BB-J	8b-	.
=275	=275	=275	=275	=275
2.D	2V7	8BBB-L	(8b-L	4B-
.	.	8BB-J	8dJ) 8f	.
.	.	8DDL	4.d 4.f	2B-
.	.	8BB-J	.	.
.	4V7	8BBB-L	.	.
.	.	8BB-J	8f 8a-	.
=276	=276	=276	=276	=276
2.D	2.I	8EE-L	(8fL 8a-	4B-
.	.	8BB-J	8e-J) 8g	.
.	.	8GGL	4e- 4g	4B-
.	.	8BB-J	.	.
.	.	8EE-L	8r	4r
.	.	8BB-J	8b-	.
=277	=277	=277	=277	=277
2.D	2.V7	4BBB- 4BB-	(8ee-L	4f 4a-
.	.	.	8ddJ)	.
.	.	4BB-	4dd	4f 4a-
.	.	4r	(8ccL	4r
.	.	.	8b-J)	.
=278	=278	=278	=278	=278
2.D	2.V7d	4AAA- 4AA-	(8ee-L	4f 4b-
.	.	.	8ddJ)	.
.	.	4AA-	4dd	4f 4b-
.	.	4r	4r	4r
*	*	*	*v	*v
=279	=279	=279	=279
2T	2Ib	4G 4e-	(8ee-L
.	.	.	8ddJ
.	.	4r	8ee-L)
.	.	.	8b-'J
4P	4IV	4A- 4e-	(8ccL
.	.	.	8a-J)
=280	=280	=280	=280
2D	2Cc	4B- 4e-	(8gL
.	.	.	8b-J
.	.	4r	8e-L)
.	.	.	8g'J
4D	4V7	4BB- 4F 4A-	(8fL
.	.	.	8dJ)
=281	=281	=281	=281
2.T	2.I	4E- 4G	(8e-L
.	.	.	8gJ)
.	.	4r	8b-'L
.	.	.	8g'J
.	.	4r	8b-'L
.	.	.	8ee-'J
*-	*-	*-	*-
!!!OTL: Zwolf Variationen in Es, uber die Romanze 'Je suis Lindor' aus der Komodie 'Le Barbier de Seville'
!!!Variation: Variation 12 d
!!!COM: Mozart
**function	**harm	**kern	**kern
*	*	*clefF4	*clefG2
*	*	*k[b-e-a-]	*k[b-e-a-]
*M3/4	*M3/4	*M3/4	*M3/4
*E-:	*E-:	*E-:	*E-:
=282	=282	=282	=282
*	*	*	*^
2.D	2.V7	4BBB- 4BB-	(8ee-L	4f 4a-
.	.	.	8ddJ)	.
.	.	4BB- 4B-	4dd	4f 4a-
.	.	4r	(8ccL	4r
.	.	.	8b-J)	.
=283	=283	=283	=283	=283
2.D	2.V7d	4AAA- 4AA-	(8ee-L	4f 4b-
.	.	.	8ddJ)	.
.	.	4AA- 4A-	4dd	4f 4b-
.	.	4r	4r	4r
*	*	*	*v	*v
=284	=284	=284	=284
2T	2Ib	4G 4e-	(8ee-L
.	.	.	8ddJ
.	.	4r	8ee-L)
.	.	.	8b-'J
4P	4IV	4A- 4e-	(8ccL
.	.	.	8a-J)
=285	=285	=285	=285
2D	2Cc	4B- 4e-	(8gL
.	.	.	8b-J
.	.	4r	8e-L)
.	.	.	8g'J
4D	4V7	4BB- 4F 4A-	(8fL
.	.	.	8dJ)
=286	=286	=286	=286
2.T	2.I	4E- 4G	(8e-L
.	.	.	8dJ)
.	.	4r	8e-'L
.	.	.	8f'J
.	.	4r	8g'L
.	.	.	8a'J
*-	*-	*-	*-
!!!OTL: Zwolf Variationen in Es, uber die Romanze 'Je suis Lindor' aus der Komodie 'Le Barbier de Seville'
!!!Variation: Variation 12 c2
!!!COM: Mozart
**function	**harm	**kern	**kern
*	*	*clefF4	*clefG2
*	*	*k[b-e-a-]	*k[b-e-a-]
*M3/4	*M3/4	*M3/4	*M3/4
*E-:	*E-:	*E-:	*E-:
=287	=287	=287	=287
*	*	*	*^
2.D	2V	8BBB-	4b-	4r
.	.	8BB-	.	.
.	.	8DD	4.d 4.f	2B-
.	.	8BB-	.	.
.	4V7	8BBB-	.	.
.	.	8BB-	8f 8a-	.
=288	=288	=288	=288	=288
2.D	2.I	8EE-	(8f 8a-	4B-
.	.	8BB-	8e-) 8g	.
.	.	8GG	4.e- 4.g	4B-
.	.	8BB-	.	.
.	.	8EE-	.	4r
.	.	8BB-	8bb-	.
=289	=289	=289	=289	=289
2.D	2V	8BBB-	8bb-	4b-
.	.	8BB-	8dd 8ff	.
.	.	8DD	4.dd 4.ff	2b-
.	.	8BB-	.	.
.	4V7	8BBB-	.	.
.	.	8BB-	8ff 8aa-	.
=290	=290	=290	=290	=290
2.D	2.I	8EE-	8ff 8aa-	4b-
.	.	8BB-	8ee- 8gg	.
.	.	8GG	4.ee- 4.gg	4b-
.	.	8BB-	.	.
.	.	8EE-	.	4r
.	.	8BB-	8b-	.
=291	=291	=291	=291	=291
2.D	2.V7	4BBB- 4BB-	(8ee-L	4f 4a-
.	.	.	8ddJ)	.
.	.	4BB- 4B-	4dd	4f 4a-
.	.	4r	(8ccL	4r
.	.	.	8b-J)	.
=292	=292	=292	=292	=292
2.D	2.V7d	4AAA- 4AA-	(8ee-L	4f 4b-
.	.	.	8ddJ)	.
.	.	4AA- 4A-	4dd	4f 4b-
.	.	4r	4r	4r
*	*	*	*v	*v
=293	=293	=293	=293
2T	2Ib	4G 4e-	(8ee-L
.	.	.	8ddJ
.	.	4r	8ee-L)
.	.	.	8b'J
4P	4IV	4A- 4e-	(8ccL
.	.	.	8a-J)
=294	=294	=294	=294
2.D	2Cc	4B- 4e-	(8gL
.	.	.	8b-J
.	.	4r	8e-L)
.	.	.	8g'J
.	4V7	4BB- 4F 4A-	(8fL
.	.	.	8dJ)
=295	=295	=295	=295
2.T	2.I	4E- 4G	(8e-L
.	.	.	8gJ)
.	.	4r	8b-'L
.	.	.	8ee-'J
.	.	4r	8gg'L
.	.	.	8bb-'J
!!!OTL: Zwolf Variationen in Es, uber die Romanze 'Je suis Lindor' aus der Komodie 'Le Barbier de Seville'
!!!Variation: Variation 12 d2
!!!COM: Mozart
**function	**harm	**kern	**kern
*	*	*clefF4	*clefG2
*	*	*k[b-e-a-]	*k[b-e-a-]
*M3/4	*M3/4	*M3/4	*M3/4
*E-:	*E-:	*E-:	*E-:
=296	=296	=296	=296
2.D	2.V7	4BB- 4D 4F 4A-	(8ee-L 8eee-
.	.	.	8ddJ) 8ddd
.	.	4BB- 4D 4F 4A-	4dd 4ddd
.	.	4r	(8ccL 8ccc
.	.	.	8b-J) 8bb-
=297	=297	=297	=297
2.D	2.V7d	4AA- 4BB- 4D 4F	(8ee-L 8eee-
.	.	.	8ddJ) 8ddd
.	.	4AA- 4BB- 4D 4F	4dd 4ddd
.	.	4r	4r
=298	=298	=298	=298
2.T	2.V7b/IV	4G 4B- 4e-	(8ee-L 8eee-
.	.	.	8dd-J) 8ddd-
.	.	4G 4B- 4e-	4dd- 4ddd-
.	.	4r	(8ccL 8ccc
.	.	.	8b-J) 8bb-
=299	=299	=299	=299
2.T	2.V7b/IV	4G 4B- 4e-	(8ee-L 8eee-
.	.	.	8dd-J) 8ddd-
.	.	4G 4B- 4e	4dd- 4ddd-
.	.	4r	4r
=300	=300	=300	=300
2.P	2.ii7b	4A- 4c 4f	8ccc'L
.	.	.	(8dddJ
.	.	4r	8eee-L)
.	.	.	8gg'J
.	.	4r	(8aa-L
.	.	.	8bb-J)
=301	=301	=301	=301
2P	2ii7b	4r	8ccc'L
.	.	.	8ee'J
.	.	4r	(8ffL
.	.	.	8ggJ)
4P	4viioD7/vi	8r	8aa-'L
.	.	8B'	8b'J
=302	=302	=302	=302
2.P	2.vi	8c'L	8cc'L
.	.	8d'J	(8ddJ
.	.	8e-'L	8ee-L)
.	.	8G'J	8g'J
.	.	8A-'L	(8a-L
.	.	8B-'J	8b-J)
=303	=303	=303	=303
2P	2ii	8c'L	8cc'L
.	.	8E'J	8e'J
.	.	8F'L	(8fL
.	.	8G'J	8gJ)
4P	4ivb	8A-'L	8a-'L
.	.	8CC-'J 8C-'	8c-'J
=304	=304	=304	=304
4D	4V	4BBB- 4BB-	4B-
2D	2viioD7/V	2AAA 2AA	2A
*M4/4	*M4/4	*	*
=305||	=305||	=305||	=305||
*M4/4	*M4/4	*M4/4	*M4/4
1D	1viioD7/V	[1AAA [1AA	16ALL
.	.	.	16c
.	.	.	16e-
.	.	.	16g-JJ
.	.	.	16aLL
.	.	.	16cc
.	.	.	16ee-
.	.	.	16gg-JJ
.	.	.	16aaLL
.	.	.	16ccc
.	.	.	16eee-
.	.	.	16cccJJ
.	.	.	16aaLL
.	.	.	16gg-
.	.	.	16ee-
.	.	.	16ccJJ
=306	=306	=306	=306
1D	1viioD7/V	4AAA] 4AA]	16aLL
.	.	.	16g-
.	.	.	16e-
.	.	.	16cJJ
.	.	16ALL	4r
.	.	16G-	.
.	.	16E-	.
.	.	16CJJ	.
.	.	16AALL	2r
.	.	16GG-	.
.	.	16EE-	.
.	.	16CCJJ	.
.	.	4AAA	.
=307	=307	=307	=307
1D	1Cc	[4BBB-	2r
.	.	(12BBB-L]	.
.	.	12EE-	.
.	.	12GGJ	.
.	.	12BB-L	4r
.	.	12E-	.
.	.	12GJ	.
.	.	12B-L	4r
.	.	12e-	.
.	.	12gJ	.
=308	=308	=308	=308
1D	1V	4b-)	4r
.	.	4r	8r
.	.	.	([8b-
.	.	2r	16b-LL]
.	.	.	16cc
.	.	.	16b-
.	.	.	16aJJ
.	.	.	32b-LLL
.	.	.	32cc
.	.	.	32dd
.	.	.	32ee-JJ
.	.	.	32ffLL
.	.	.	32gg
.	.	.	32aa-
.	.	.	32bb-JJJ)
=309	=309	=309	=309
1D	1V7	2r	(64cccLLLL
.	.	.	64ddd
.	.	.	64eee-
.	.	.	64ddd
.	.	.	64ccc
.	.	.	64bb-
.	.	.	64aa-
.	.	.	64ggJJJ
.	.	.	64ffLLL
.	.	.	64ee-
.	.	.	64dd
.	.	.	64cc
.	.	.	64b-
.	.	.	64a-
.	.	.	64g
.	.	.	64fJJJJ
.	.	.	64e-LLLL
.	.	.	64d
.	.	.	64c
.	.	.	64B-
.	.	.	64A-
.	.	.	64G
.	.	.	64F
.	.	.	64E-JJJ
.	.	.	32DLL
.	.	.	32CJ
.	.	.	16BB-JJ
.	.	8r	16AALL
.	.	.	16BB-JJ)
.	.	(16AAALL	8r
.	.	16BBB-JJ)	.
.	.	8r	8r
.	.	16r	16r
.	.	16BB-	16F 16A- 16B- 16d
=310	=310	=310	=310
1T	1I	[2EE- [2BB- [2E-	(2F 2A- 2B- 2d
.	.	8EE-] 8BB-] 8E-]	8E-) 8G 8B- 8e-
.	.	8r	8r
.	.	4r	4r
==	==	==	==
*-	*-	*-	*-
